X:1
T:ERSTE  SONNTAGSMESSE
T:JOSEF GRUBER, op. 15
T:ERSTE  SONNTAGSMESSE
T:AGNUS  DEI
C:JOSEF GRUBER, op. 15
%%score { ( 1 2 5 ) | ( 3 4 ) } { ( 6 7 10 11 ) | ( 8 9 12 ) }
L:1/8
Q:1/4=80
M:4/4
K:C
V:1 treble nm="Soprano Alto"
V:2 treble 
V:5 treble 
V:3 bass 
V:4 bass 
V:6 treble nm="P3"
V:7 treble 
V:10 treble 
V:11 treble 
V:8 bass 
V:9 bass 
V:12 bass 
V:1
!p!"^Organo""^TenoreBasso""^Andante con moto"!<(! (E2!<)!"^-" G4)!>(! F2 | E4!>)!"^Viol." z2 E2 | %2
w: Ky- * ri-|e e-|
w: ||
"^-""^-" D8 |"^Corni.""^Viol." E2 z2!p! z4 | (E2"^-" G4) F2 |"^Viol." E4 z2"^-" E2 | %6
w: lei-|son,|Ky- * ri-|e e|
w: ||||
"^-"!<(! A8!<)! | ^G2"^Viol." z2 z4 |!f! (A2"^-" c4) B2 | A4 z2 A2 | (G4!>(! A4) | %11
w: lei-|son,|Ky- * ri-|e e-|lei- *|
w: |||||
 B4!>)!"^Cello."!mf! z4 |"^Solo" (e4 f2"^-" d2 |"^-" e4) d2 c2 | (c2 B2)"^Viol."!mf! c4 | %15
w: son.|Chri- * *|* ste e-|lei- * son,|
w: ||||
"^Solo" z2 e4 ee | d4 d2 d2 |"^-""^-" f8 | e2 z2 z4 |!f!"^-" f8- |"^-" f4 e2 e2 | d4 c2 c2 | %22
w: Chri- ste e-|lei- son, e-|lei-|son,|Chri|* ste e-|lei- son, e-|
w: |||||||
"^-" (B4"^-"!>(! A4)!>)! |"^Corni." G4"^Viol." z4 | z8 | z8 |!mf! (E2"^Tutti""^Tutti""^-" G4) F2 | %27
w: lei- *|son.|||Ky- * ri-|
w: |||||
 E4 z2!<(! E2 |!>(! [AA]8!<)!!>)! | G4"^Viol." z4 |!f! (c2"^-" e4) d2 | c4 z2"^-" c2 | %32
w: e e-|lei-|son,|Ky- * ri-|e e|
w: |||||
"^-""^-""^-" f8 | d2!ff! g4 f2 | e2 e4 d2 | c4 A4 |!>(! G8!>)! | G4 z2!p! C2 |"^-"!<(!!>(! C8!<)! | %39
w: lei-|son, Ky- ri-|e, Ky- ri-|e e-|lei-|son, e-|lei-|
w: |||||||
 C4!>)! z4 | z8 |][M:4/4]"^Allegro moderato"[Q:1/4=120]"^Viol."[Q:1/4=120] z8 |"^Corni." z8 | z8 | %44
w: son.|||||
w: |||||
 z8 | z8 | z2!p! E4 E2 | G4 G4 | A6 A2 |"^-" A4!>)!!>(! A4 | G2 z2 z4 |!f! e4 d4 | (d2 c2) B4 | %53
w: ||Et in|ter- ra|pax ho-|mi- ni-|bus|bo- nae|vo- * lun-|
w: |||||||||
"^-""^-" A8 | G4 z2 G2 | (c4 d2) e2 | d4 G2 G2 | g4 f2 e2 | d4!p! G2 G2 |"^-" (c4 B2) A2 | %60
w: ta-|tis. Lau-|da- * mus|te, be- ne-|di- ci- mus|te, a- do-|ra- * mus|
w: |||||||
 E2 B2 e2 d2 |!f!"^-""^-" c8- |"^-" c4 B4 |"^Viol." c4!mf! z4 |"^Solo" F4 A2 A2 | c4 _B2 A2 | %66
w: te, * * *||ca- *|te.|Gra- ti- as|a- gi- mus|
w: * glo- ri- fi-|ca-|* mus|te.|||
"^-""^-" _B8 | A4 A2 A2 | d4 G4 | c4 _B2 A2 | (G4 A4) | G4 z4 | z8 | z8 | z8 | z8 | z8 | z8 | z8 | %79
w: ti-|bi pro- pter|ma- gnam|glo- ri- am|tu- *|am.||||||||
w: |||||||||||||
!mf! z2"^Tutti" E4 EE | G4 G4 | A6"^-" A2 | G3!>(! G!>)! G4 | z2!p! D4 D2 | %84
w: Do- mi- ne|Fi- li|U- ni-|ge- ni- te,|Je- su|
w: |||||
!<(!!<(!!>(! E8!<)!!<)!!>)! | D2"^Viol." z2 z4 | z2!f! c4 cc | c4 A4 | z2 d4 d2 | d4 G4 | %90
w: Chri-|ste,|Do- mi- ne|De- us,|A- gnus|De- i,|
w: ||||||
 z2 e4 ee | (d4 c4) | !fermata!B6!f! E2 | A4 A3 B | (c4 B2) A2 | B8 | A4!p! E2 E2 | A4 G4 | %98
w: Fi- li- us|Pa- *|tris. Qui|tol- lis pec-|ca- * ta|mun-|di, mi- se-|re- re|
w: ||||||||
!>(! F8!>)! | E2 z2"^Viol." z2!f! A2 | d4 d3 e | (f4 e2) d2 | e8 | d4 z4 |!p!"^Corni." d3 d d4 | %105
w: no-|bis. Qui|tol- lis pec-|ca- * ta|mun-|di,|su- sci- pe|
w: |||||||
 z2 d4 d2 | c4!<(! d4!<)! | _e4 d4 |!>(! c8!>)! | d2 z2"^Viol." z2!f! D2 | G4 G3 A | _B4 A2 G2 | %112
w: de- pre-|ca- ti-|o- nem|no-|stram. Qui|se- des ad|de- xte- ram|
w: |||||||
 A8 | G4!p! D2 D2 | E4 D4 |!>(! D8!>)! | D2!f! (G2 A2"^-" G2) |"^-" c3 c c2 c2 | B4 c4 |"^-" d8 | %120
w: Pa-|tris, mi- se-|re- re|no-|bis. Quo- * *|* ni- am Tu|so- lus|San-|
w: ||||||||
 c2 c2"^accel." c2 c2 | c3 c c4 | z2 c2 c2 cc | d3 d d4 | z2 (B2 c2) d2 | e8 | d2 G2 G2 G2 | %127
w: ctus, Tu so- lus|Do- mi- nus,|Tu so- lus Al-|tis- si- mus,|Je- * su|Chri-|ste. Cum San- cto|
w: |||||||
 c3 c c4 | z2 A2 A2 AA | d4 d4 | z2 (d2 e2) e2 |"^-" d8 |"^rit." c4 c2!ff! d2 |"^a tempo" [Ge]8 | %134
w: Spi- ri- tu:|in glo- ri- a|De- i|Pa- * tris.|A-|men, a- men,|a-|
w: |||||||
 c2 z2 z4 |][M:4/4]!mf!"^Allegro moderato"[Q:1/4=120][Q:1/4=120] (G4"^Choral" A4) | G2 G2 E2 C2 | %137
w: men.|Pa- *|trem o- mni- po-|
w: |||
"^-" D8 | C2 z2 z2 C2 | D4 E4 | G4 G2 G2 |!>(! A8!>)! | G4!f! d2 d2 | d4 e2 e2 | d3 d d4 | %145
w: ten-|tem, fa-|cto- rem|coe- li et|ter-|rae, vi- si-|bi- li- um|o- mni- um|
w: ||||||||
 z2 (c2 B2) A2 |"^-" d4 c4 | (c4 B2) B2 | c2 z2 z4 | z8 | z8 | z8 | z8 | z8 | z8 | z8 | z8 | z8 | %158
w: et * in-|vi- si-|bi- * li-|um.||||||||||
w: |||||||||||||
 z2!mf! G4 A2 | B4 c4 | (d4 A4) | B2 B4 B2 | B3 A G4 | ^F6 F2 | E2"^Viol." z2 z4 |!f! A4 A2 A2 | %166
w: |||||||De- um de|
w: ||||||||
 c4"^Corni." A4 | c4 c2 c2 | e3 e c4 | z2 f4 f2 | e4 c2 c2 | B4 c4 | (c4 B4) | %173
w: De- o,|lu- men de|lu- mi- ne,|De- um|ve- rum de|De- o|ve- *|
w: |||||||
 c2 z2"^Viol.""^Cor ni." z4 | z8 |!mf!"^Solo" F3 A c2 d2 | d4 c4 | f3 e d2 c2 | (c3 _B) A4 | %179
w: ro.||Ge- ni- tum, non|fa- ctum,|con- sub- stan- ti-|a- * lem|
w: ||||||
"^-" G8 | A2!<(! (A2 =B2)!<)! ^c2 | d3 =c _B4 | A3 G F4 |!>(! E6!>)! F2 | D2 z2"^Viol." z4 | %185
w: Pa-|tri: per * quem|o- mni- a,|o- mni- a|fa- cta|sunt.|
w: ||||||
 z4!mf! z2"^Tutti""^Corni." E2 | A4 A2 A2 | B3 B B2 B2 | c2!<(! c2 d2 dd!<)! | e4 c2 e2 | %190
w: Qui|pro- pter nos|ho- mi- nes et|pro- pter no- stram sa-|lu- tem de-|
w: |||||
 (c2 A2) E2 c2 |!>(! (A2 E2)!>)! C2!p! E2 |"^-""^-""^-" (E8- |"^rit." E4"^-" D2"^-" C2) | %194
w: scen- * dit, de-|scen- * dit de|coe-||
w: ||||
!pp! !fermata!D8 ||!p!"^Andante sostenuto"[Q:1/4=80][Q:1/4=80] z2"^Choral" G2 E2 E2 | C4 D4 | %197
w: lis.|Et in- car-|na- tus|
w: |||
 C4"^Viol. 1." z2 E2 | E3 D E4 |!<(! (G4!<)!"^-"!>(! A4)!>)! | G4!mf! z4 | c2 c2 B2 G2 | %202
w: est de|Spi- ri- tu|San- *|cto|ex Ma- ri- a|
w: |||||
 A6"^-"!>(! A2 | G4!>)! z2!p! C2 | E6"^-" E2 |!<(! F6!<)! F2 |!>(! G4!>)! z4 | z8 | z8 | z8 | z8 | %211
w: Vir- gi-|ne, et||||||||
w: |||||||||
 z8 | z8 | z8 | z8 | z8 | z8 ||!f!"^Tempo I""^Choral" z8 | z8 | z2!f! d4 cc | c4 B4 | z2 c2 B2 AA | %222
w: ||||||||||se- cun- dum Scri-|
w: |||||||||||
"^-""^-" G8 | G2"^Viol." z2 z4 | z4 d2 d2 | e4 c2 c2 | d4 d4 | c2 cc B2 AA |"^-"!>(! E8!>)! | %229
w: ptu-|ras.|Et a-|scen- dit in|coe- lum,|se- det ad de- xte- ram|Pa-|
w: |||||||
 E4 z2!p! E2 |"^cresc." A3 A A2 ^c2 | e3 e e2!f! e2 | f3 f f2 ff | d4 d4 | e4 d2 c2 | B3 B B2 BB | %236
w: tris. Et|i- te- rum ven-|tu- rus est cum|glo- ri- a, ju- di-|ca- re|vi- vos et|mor- tu- os, cu- jus|
w: |||||||
 c4 c2 c2 | e4 e4 |"^-" d8 | c4 z4 |"^Viol." z8 | z8 |"^Solo" G2 A2 B2 cc | d6 d2 |"^-" e6 e2 | %245
w: re- gni non|e- rit|fi-|nis.|||Et in Spi- ri- tum|San- ctum,|Do- mi-|
w: |||||||||
 d2 d3 cBA | B4 B4 | A3 A A2 B2 | c3 c c2 BA | B4 B2 z2 | z8 | z8 | z8 | z8 | z8 | z8 | z8 | z8 | %258
w: num et vi- vi- fi-|can- tem:|qui ex Pa- tre|Fi- li- o- que pro-|ce- dit.|||||||||
w: |||||||||||||
 z8 | z8 | z8 | z8 | z8 |!mf! z2"^Tutti""^Choral" G2 G2 G2 | E4 E2 C2 | D6 D2 | C2 G2 G2 G2 | %267
w: |||||||||
w: |||||||||
"^-" G3 G G2 A2 | F4 G4 | E2 G2 A3 B | c2 B2 c2 d2 | e4 d4 | c2 B2 A2 G2 | F4 E4 |!p! E2 E2 E4 | %275
w: sto- li- cam Ec-|cle- si-|am. Con- fi- te-|or u- num Ba-|pti- sma|in re- mis- si-|o- nem|pec- ca- to-|
w: ||||||||
 E4!f! E2 E2 |"^-" c4 A4 | c3 B A2 G2 |!>(! F4!>)! E4 |!p! D2 D2 _E4 | D2 z2!mf! z2"^Solo" G2 | %281
w: rum. Et ex-|spe- cto|re- sur- re- cti-|o- nem|mor- tu- o-|rum. Et|
w: ||||||
 (c2 d2) e2 c2 | (e2 f2"^-"!<(! g2) c2 | f3 f!<)! f4 | z2"^Tutti"!f! (B2 c2) c2 | (c4 B4) | %286
w: vi- * tam ven-|tu- * * ri|sae- cu- li.|A- * men,|a- *|
w: |||||
 c4 e2 d2 |!ff! e8 | c2 z2 z4 | z8 |][M:4/4]!p!"^Andante"[Q:1/4=80][Q:1/4=80] E8 | %291
w: men, a- men,|a-|men.||San-|
w: |||||
 E2"^Viol." z2 z4 |!mf! [EA]8 | A2 z2 z4 |!f! A4 A4 | G3 G G4 | F4 F4 |!p! E6!>(! E2!>)! | %298
w: ctus,|San-|ctus,|San- ctus|Do- mi- nus|De- us|Sa- ba-|
w: |||||||
!pp! !fermata!E8 ||!f!"^Allegro"[Q:1/4=120][Q:1/4=120] c4 c2 c2 | c4 G2 G2 | A4 A4 | z4"^-" c4- | %303
w: oth.|Ple- ni sunt|coe- li et|ter- ra|glo-|
w: |||||
 c4 B2 B2 | A4 G2 G2 | (G4 ^F4) | !fermata!G6!mf! G2 | G2 A2 B2 c2 | d4!mf! c2 e2 | e2 d2 c2 B2 | %310
w: * ri- a,|glo- ri- a|tu- *|a. Ho-|san- na in ex-|cel- sis, ho-|san- na in ex-|
w: |||||||
 A4 B2!f! G2 |"^-" G2 A2 B2 c2 | d4 c2!ff! g2 | g2 f2 e2 e2 |"^-" d8 | c4 G2 G2 | %316
w: cel- sis, ho-|san- na in ex-|cel- sis, ho-|san- na in ex-|cel-|sis, in ex-|
w: ||||||
"^-""^-"!<(! [FA]8!<)! | G4 z4 | z8 |] %319
w: cel-|sis.||
w: |||
[K:G][M:4/4]!mf!"^Solo""^Andante"[Q:1/4=80][Q:1/4=80] (B4 A2) G2 | F4 G2 D2 | %321
w: Be- * ne-|di- ctus qui|
w: ||
!<(! (GABc)!<)! d2 d2 | c4 B2 B2 | (A4!>(! B2)!>)! B2 | A4"^Viol."!mf! z4 | %325
w: ve- * * * nit in|no- mi- ne|Do- * mi-|ni.|
w: ||||
"^Tutti""^Corni." (B4 A2) G2 | F4 G2 z2 | z8 | z4 z2 F2 |!<(! (GFGA!<)! B2) AG | F4!>(! E4!>)! | %331
w: Be- * ne-|di- ctus|||||
w: ||||||
 D2 z2"^Viol." z4 | z8 |!f! (G4 A2) G2 | (G2 F2) G2 z2 | z4 z2!<(! d2!<)! | (e3 d) c2 d2 | %337
w: ||||||
w: ||||||
 B2 BB!>(! (AG)!>)! F2 | G4 z2!f! D2 | d3 c B2 A2 | B4 B2 G2 |!<(! G3 A!<)! B2 B2 | %342
w: |||||
w: |||||
!>(! (B2 AG!>)! A4) | G4"^Corni.""^Viol." z4 | z8 | z8 | z8 | z8 |] %348
w: ||||||
w: ||||||
[K:C][M:4/4]"^Andante sostenuto"[Q:1/4=80][Q:1/4=80] z8 | z8 |"^Viol." z8 | z8 |"^Corni." z8 | z8 | %354
w: ||||||
w: ||||||
!mf! z4 c2 c2 |!mf! e4 c4 | z4 c2 c2 | f2 e2 d4 | c4"^Viol." z4 | z8 |!mf! z8 |"^Solo" c6 G2 | %362
w: |||||||A- gnus|
w: mi- se-|re- re,|mi- se-|re- re no-|bis.||||
 (A3 G"^-" F4) |"^-""^Corni." E4"^Viol." z2 c2 |!<(! c4 c2!<)! d2 | e4 B4 |!>(! B8!>)! | E4 z4 | %368
w: De- * *|i, qui|tol- lis pec-|ca- ta|mun-|di:|
w: ||||||
!mf! z4"^Tutti" e2 B2 |!<(! (^c4"^-" B2)!<)! A2 | (^G4"^-"!>)!!>(! ^F4) |"^-" E2"^Viol." z2 z4 | %372
w: mi- se-|re- * re|no- *|bis.|
w: ||||
 z8 |!f! A6 E2 | F8 | E4 z2 A2 | A4 A2 B2 | c4 G4 |"^-"!>(! G8!>)! | G4"^Viol.""^Corni." z4 | %380
w: |A- gnus|De-|i, qui|tol- lis pec-|ca- ta|mun-|di:|
w: ||||||||
"^Solo"!mf! (e4 f2) d2 | (e4 d2) c2 | (c2 B2) c2"^Solo" z2 |!mf! z2 e4 e2 |"^-" d6 d2 | %385
w: do- * na|no- * bis|pa- * cem,|do- na|no- bis|
w: |||||
"^-""^-" f8 | e2 z2 z4 |"^Tutti"!f! f6 f2 | (f4 e2) e2 |!>(! d4!>)! c4 |!mf! z2!<(! A4!<)! A2 | %391
w: pa-|cem,|do- na|no- * bis|pa- cem,|do- na|
w: ||||||
!f! (c4 G2) E2 |"^-"!>(! D8!>)! | C2 z2"^Viol. 1.""^Corni." z4 |"^Viol. 2." z8 | z8 | z8 |] %397
w: no- * bis|pa-|cem.||||
w: ||||||
V:2
 z8 | z8 | z8 | z8 | C6 C2 | C4 z2 C2 | (C6!>(! D2)!>)! | E2 z2 z4 | (A2 c4) B2 | A4 z2 A2 | %10
w: ||||||||||
 (G4 A4) | B4 z4 | z8 | z8 | z8 | x2 c4 cc | c4 B2 B2 | (A6 B2) | ^c2 z2 z4 | (A8 | G4) G2 G2 | %21
w: |||||||||||
 (G2 F2) E2 A2 | (G4 ^F4) | G4 z4 | x8 | x8 | (E2 G4) F2 | E4 z2 E2 | x8 | G4 z4 | G4 ^G4 | %31
w: ||||||||||
 A4 z2 A2 | A8 | G2 G4 G2 | G2 (E2 F2) G2 | A4 (F2 E2) | D8 | E4 z2 C2 | C8 | C4 z4 | x8 |] %41
w: ||||||||||
[M:4/4] x8 | x8 | x8 | x8 | x8 | z2 E4 E2 | G4 G4 | A6 A2 | A4 A4 | G2 z2 z4 | G4 G4 | A4 G4 | %53
w: ||||||||||||
 (G2 ^F2 E2 F2) | G4 z2 G2 | G6 G2 | G4 G2 G2 | G4 G2 G2 | G4 G2 G2 | (c4 B2) A2 | E2 z2 z4 | %61
w: ||||||||
 z2 A2 A2 A2 | (A4 G2) F2 | E4 z4 | z8 | z8 | z8 | z8 | z8 | z8 | z8 | z8 | x8 | x8 | x8 | x8 | %76
w: |||||||||||||||
 x8 | x8 | x8 | x2 E4 EE | G4 G4 | A6 A2 | G3 G G4 | x2 B,4 B,2 | C8 | B,2 z2 z4 | x2 c4 cc | %87
w: |||||||||||
 c4 A4 | x2 d4 d2 | d4 G4 | x2 G4 GG | (G4 E4) | E6 E2 | A4 A3 B | (c4 B2) A2 | B8 | A4 C2 C2 | %97
w: ||||||||||
 F4 E4 | D8 | ^C2 z2 z4 | z8 | z8 | z8 | z8 | F3 F F4 | x2 F4 F2 | F4 F4 | G4 F4 | F8 | %109
w: ||||||||||||
 F2 z2 z2 D2 | G4 G3 A | _B4 A2 G2 | A8 | G4 =B,2 B,2 | C4 B,4 | A,8 | B,2 (G2 A2 G2) | %117
w: ||||||||
 G3 G G2 G2 | G4 G4 | (A4 G2 F2) | E2 G2 G2 G2 | G3 G G4 | z2 G2 G2 GG | G3 G G4 | x2 G4 G2 | G8 | %126
w: |||||||||
 G2 G2 G2 G2 | c3 c c4 | x2 A2 A2 AA | d4 d4 | x2 G4 G2 | (G6 F2) | E4 G2 G2 | x8 | E2 z2 z4 |] %135
w: |||||||||
[M:4/4] (G4 A4) | G2 G2 E2 C2 | D8 | C2 z2 z2 C2 | D4 E4 | G4 G2 G2 | A8 | G4 G2 G2 | G4 G2 G2 | %144
w: |||||||||
 G3 G G4 | x2 (A2 G2) F2 | F4 E4 | D4 D4 | E2 z2 z4 | x8 | x8 | x8 | x8 | x8 | x8 | x8 | x8 | x8 | %158
w: ||||||||||||||
 x2 D4 ^F2 | G4 G4 | (G4 ^F4) | G2 G4 G2 | ^F3 F E4 | x8 | E2 z2 z4 | A4 A2 A2 | c4 A4 | A4 A2 A2 | %168
w: ||||||||||
 B3 B A4 | x2 A4 A2 | G4 G2 G2 | G4 G4 | G8 | G2 z2 z4 | x8 | z8 | z8 | z8 | z8 | z8 | z8 | z8 | %182
w: ||||||||||||||
 z8 | z8 | z8 | x4 x2 E2 | E4 E2 E2 | ^G3 G G2 G2 | A2 E2 =G2 GG | G4 E2 z2 | z4 z2 c2 | %191
w: |||||||||
 (A2 E2) C2 C2 | (C8- | C4 B,2 A,2) | B,8 || x2 G2 E2 E2 | C4 D4 | C4 z2 E2 | E3 D E4 | (G4 A4) | %200
w: |||||||||
 G4 z4 | c2 c2 B2 G2 | A6 A2 | G4 z2 C2 | E6 E2 | F6 F2 | G4 z4 | x8 | x8 | x8 | x8 | x8 | x8 | %213
w: ||||ho- mo|fa- ctus|est.|||||||
 x8 | x8 | x8 | x8 || z2 G2 G2 G2 | A4 G4 | x2 G4 EF | G4 G4 | x2 A2 G2 FF | D8 | D2 z2 z4 | %224
w: ||||Et re- sur-|re- xit|ter- ti- a|di- e,||||
 x4 G2 G2 | G4 G2 G2 | G4 G4 | c2 cc B2 AA | E8 | E4 z4 | z8 | z4 z2 A2 | A3 A A2 AA | G4 G4 | %234
w: ||||||||||
 G4 G2 E2 | E3 E E2 EE | E4 E2 A2 | G4 G4 | (G6 F2) | E4 z4 | x8 | x8 | G2 ^F2 G2 AA | (B4 A2) G2 | %244
w: ||||||||||
 (G2 AB c2) c2 | B2 B3 AG^F | (^F4 G2) F2 | E3 E E2 D2 | E3 E E2 EE | E4 ^D2 z2 | x8 | x8 | x8 | %253
w: |||||||||
 x8 | x8 | x8 | x8 | x8 | x8 | x8 | x8 | x8 | x8 | x2 G2 G2 G2 | E4 E2 C2 | C4 B,4 | C2 E2 D2 C2 | %267
w: ||||||||||||||
 D3 D E2 E2 | F4 D4 | C2 z2 z4 | z2 G2 G2 G2 | G4 G4 | E2 G2 F2 E2 | D4 C4 | B,2 B,2 C4 | %275
w: ||||||||
 B,4 E2 E2 | c4 A4 | c3 B A2 G2 | F4 E4 | B,2 B,2 C4 | B,2 z2 z4 | z8 | z8 | z8 | x2 G4 G2 | G8 | %286
w: |||||||||||
 G4 G2 G2 | G8 | E2 z2 z4 | x8 |][M:4/4] C8 | C2 z2 z4 | x8 | E2 z2 z4 | F4 F4 | E3 E E4 | D4 D4 | %297
w: |||||||||||
 C6 C2 | B,8 || c4 c2 c2 | c4 G2 G2 | A4 A4 | x4 (E4 | D4) D2 G2 | ^F4 E2 E2 | (E4 D4) | D6 z2 | %307
w: ||||||||||
 z8 | z4 z2 c2 | c2 B2 A2 G2 | (G2 ^F2) G2 G2 | G2 A2 B2 c2 | d4 c2 G2 | G2 G2 G2 G2 | (G6 F2) | %315
w: ||||||||
 E4 E2 E2 | x8 | E4 z4 | x8 |][K:G][M:4/4] z8 | z8 | z8 | z8 | z8 | z8 | (G4 E2) E2 | %326
w: |||||||||||
 (E2 ^D2) E2 z2 | z4 z2 B,2 | (B,^C^DE) F2 D2 | (E^DEF G2) FE | =D6 ^C2 | D2 z2 z4 | x8 | %333
w: |||||||
 (G4 A2) G2 | (G2 F2) G2 z2 | x4 x2 G2 | ^G4 A2 A2 | =G2 GG E2 D2 | D4 z2 D2 | d3 c B2 A2 | %340
w: |||||||
 B4 B2 G2 | G3 A B2 B2 | (B2 AG A4) | G4 z4 | x8 | x8 | x8 | x8 |][K:C][M:4/4] x8 | x8 | x8 | x8 | %352
w: ||||||||||||
 x8 | x8 | z8 | z4 G2 G2 | A4 G4 | (G6- GF) | E4 z4 | x8 | x8 | z8 | z8 | z8 | z8 | z8 | z8 | z8 | %368
w: ||||||||||||||||
 x4 ^G2 G2 | (A4 ^G2) ^F2 | (E4 ^D4) | E2 z2 z4 | x8 | E6 C2 | D8 | C4 z2 E2 | F4 F2 G2 | G4 E4 | %378
w: ||||||||||
 D8 | E4 z4 | z8 | z8 | z8 | x2 c4 c2 | (c4 B2) B2 | (A6!>(! B2)!>)! | ^c2 z2 z4 | A6 A2 | G6 G2 | %389
w: |||||||||||
 (G2 F2) E4 | x2 A4 A2 | (c4 G2) E2 | D8 | C2 z2 z4 | x8 | x8 | x8 |] %397
w: ||||||||
V:3
 z8 | z8 | z8 |!p! z8 | G,2 E,2 A,2 A,2 | G,4 z2 C2 |!<(!!>(! A,8!<)! | B,2!>)! z2 z4 | %8
w: ||||||||
w: ||||||||
w: ||||||||
w: ||||||||
!f! A,2 C4 B,2 | A,4 z2 A,2 | G,4!>(! A,4!>)! | B,4 z4 | z8 | z8 | z8 | z8 | z8 | z8 | z8 | %19
w: |||||||||||
w: |||||||||||
w: |||||||||||
w: |||||||||||
!f!"^Solo" D8- | D4 C2 C2 | B,4 C2 E2 | D6 C2 | B,4 z4 | z8 | z8 |!mf! E,2 G,4 F,2 | %27
w: ||||||||
w: ||||||||
w: ||||||||
w: ||||||||
 E,4 z2!<(! E,2 |!>(! [A,A,]8!<)!!>)! | G,4!f! z4 | E2 C2 B,2 B,2 | A,4 z4 | z2 A,2 D2 C2 | %33
w: ||||||
w: ||||||
w: ||||||
w: |||||e- lei- *|
 B,2!ff! B,2 C2 D2 | C2 C4 B,2 | A,4 C4 | C4!>(! B,4!>)! | C4 z2!p! C,2 |!<(!!>(! C,8!<)! | %39
w: ||||||
w: ||||||
w: ||||||
w: son, * * *||||||
 C,4!>)! z4 | z8 |][M:4/4] z8 | z8 | z8 | z8 | z8 | z8 | z8 | z8 | z8 |!f! z8 | C4 B,4 | D4 D4 | %53
w: ||||||||||||||
w: ||||||||||||||
w: ||||||||||||||
w: ||||||||||||||
 D6 C2 | B,4 z2 G,2 | G,4 B,2 C2 | B,4 G,2 G,2 | E4 D2 C2 | B,4!p! G,2 G,2 | C4 B,2 A,2 | %60
w: |||||||
w: |||||||
w: |||||||
w: |||||||
 E,2 z2 z4 |!f! z2 E2 E2 E2 | D6 D2 | C4 z4 | z8 | z8 | z8 | z8 | z8 | z8 | z8 |"^Solo"!mf! z8 | %72
w: ||||||||||||
w: ||||||||||||
w: ||||||||||||
w: ||||||||||||
 A,4 C2 CC | E2 E2 D2 C2 | B,8 | A,4 C2 C2 | F2 E2 D2 C2 |"^-" C2 B,2"^-" A,2 B,2 | C4 z4 | z8 | %80
w: ||||||||
w: ||||||||
w: Do- * mi- ne|De- us, Rex coe-|le-|stis, De- us|Pa- * ter o-|mni- * * po-|tens.||
w: ||||||||
 z8 | z8 | z8 |!p! z2 G,4 G,2 |!<(!!>(! G,8!<)!!>)! | G,2 z2 z4 | z2!f! C4 CC | C4 A,4 | z2 D4 D2 | %89
w: |||||||||
w: |||||||||
w: |||||||||
w: |||||||||
 D4 G,4 | z2 C4 CC | B,4 A,4 | ^G,6!f! E,2 | A,4 A,3 B, | C4 B,2 A,2 | B,8 | A,4!p! A,2 A,2 | %97
w: ||||||||
w: ||||||||
w: ||||||||
w: ||||||||
 C4 C4 |!>(! A,8!>)! | A,2 z2 z2!f! A,2 | D4 D3 E | F4 E2 D2 | E8 | D4!p! z4 | _B,3 B, B,4 | %105
w: ||||||||
w: ||||||||
w: ||||||||
w: ||||||||
 z2 _B,4 B,2 | A,4!<(! _B,4 | _B,4!<)! B,4 |!>(! _B,4 A,4!>)! | _B,2 z2 z2!f! D,2 | G,4 G,3 A, | %111
w: ||||||
w: ||||||
w: ||||||
w: ||||||
 _B,4 A,2 G,2 | A,8 | G,4!p! G,2 G,2 | G,4 G,4 |!>(! G,4 ^F,4!>)! | G,2!f! G,2 A,2 G,2 | %117
w: ||||||
w: ||||||
w: ||||||
w: ||||||
 E3 E E2 E2 | D4 C4 | C4 B,4 | C2 E2"^accel." E2 E2 | E3 E E4 | z2 E2 E2 EE | B,3 B, B,4 | %124
w: |||||||
w: |||||||
w: |||||||
w: |||||||
 z2 D2 C2 B,2 | C8 | B,2 G,2 G,2 G,2 | C3 C C4 | z2 A,2 A,2 A,A, | D4 D4 | z2 D2 C2 C2 | C4 B,4 | %132
w: ||||||||
w: ||||||||
w: ||||||||
w: ||||||||
 C4 E2 B,2 |!ff! [C,C]8 | G,2 z2 z4 |][M:4/4]!mf! G,4 A,4 | G,2 G,2 E,2 C,2 | D,8 | C,2 z2 z2 C,2 | %139
w: |||||||
w: |||||||
w: |||||||
w: |||||||
 D,4 E,4 | G,4 G,2 G,2 |!>(! A,8!>)! | G,4!f! B,2 B,2 | B,4 C2 C2 | B,3 B, G,4 | z2 E4 C2 | %146
w: |||||||
w: |||||||
w: |||||||
w: |||||||
 A,4 G,4 | G,6 G,2 | G,2 z2 z4 | z8 |!mf! z8 | z8 |"^-" z8 | z8 | z8 | z8 | z8 | z8 | %158
w: ||||||||||||
w: ||||||||||||
w: ||||||||||||
w: ||||||||||||
 z2!mf! B,4 D2 | D4 C4 | A,4 D4 | D2 D4 E2 | B,3 B, B,4 | B,6 A,2 | G,2 z2 z4 |!f! A,4 A,2 A,2 | %166
w: ||||||||
w: ||||||||
w: ||||||||
w: ||||||||
 C4 A,4 | E4 E2 E2 | E3 E E4 | z2 C4 C2 | C4 C2 C2 | D4 E4 | D8 | E2 z2 z4 | z8 | z8 | z8 | z8 | %178
w: ||||||||||||
w: ||||||||||||
w: ||||||||||||
w: ||||||||||||
 z8 | z8 | z8 | z8 | z8 | z8 | z8 | z4 z2!mf! E,2 | C4 C2 C2 | E3 E E2 E2 | %188
w: ||||||||||
w: ||||||||||
w: ||||||||||
w: ||||||||||
 E2!<(! A,2 B,2 B,!<)!B, | C4 G,2 z2 | z4 z2 C2 |!>(! A,2 E,2!>)! C,2!p! z2 | G,8 | G,8 | %194
w: ||||||
w: ||||||
w: ||||||
w: ||||||
!pp! G,8 || z8 | z8 | z8 | z8 | z8 | z8 | z8 | z8 | z8 | z8 | z8 | z8 |!f! z8 | z8 | z8 | z8 | z8 | %212
w: ||||||||||||||||||
w: ||||||||||||||||||
w: ||||||||||||||||||
w: ||||||||||||||||||
!>(! z8!>)! |!p! z8 | z8 | z8 | z8 || z8 | z8 | z2!f! B,4 CC | D4 D4 | z2 E2 E2 CC | C4 B,2 A,2 | %223
w: |||||||||||
w: |||||||||||
w: |||||||||||
w: |||||||||||
 B,2 z2 z4 | z4 B,2 B,2 | C4 E2 C2 | B,4 B,4 | C2 CC B,2 A,A, |!>(! E,8!>)! | E,4 z4 | z8 | %231
w: ||||||||
w: ||||||||
w: ||||||||
w: ||||||||
 z4 z2!f! ^C2 | D3 D D2 DD | B,4 B,4 | C4 B,2 A,2 | ^G,3 G, G,2 G,G, | A,4 A,2 C2 | C6 C2 | %238
w: |||||||
w: |||||||
w: |||||||
w: |||||||
 C4 B,4 | C4 z4 | z8 | z8 | z8 | z8 | z8 | z8 | z8 | z8 | z8 | z8 |!mf! z4 B,2 B,2 | C4 B,2 A,2 | %252
w: ||||||||||||||
w: ||||||||||||||
w: ||||||||||||Qui cum|Pa- tre et|
w: ||||||||||||||
 B,3 B, B,4 |!p! E,6 E,2 |"^cresc." E,6 ^F,2 | G,4 G,2 G,2 | A,2 A,2 B,2 C2 | B,4 B,2 B,B, | %258
w: ||||||
w: ||||||
w: Fi- li- o|si- mul|a- do-|ra- tur et|con- glo- ri- fi-|ca- tur: qui lo-|
w: ||||||
"^-"!f! E3 E, E,2 E,E, | C4 A,4 | E,4 z4 | z8 | z8 | z2!mf! G,2 G,2 G,2 | E,4 E,2 G,2 | G,6 F,2 | %266
w: ||||||||
w: ||||||||
w: cu- tus est per Pro-|phe- *|tas.|||Et u- nam,|san- ctam, Ca-|tho- li-|
w: ||||||||
 E,2 G,2 G,2"^-" G,2 | G,3 G, G,2 C2 | C4 B,4 | C2 z2 z4 | z2 D2 C2 B,2 | C4 B,4 | C2 E2 C2 C2 | %273
w: |||||||
w: |||||||
w: cam et a- po-|||||||
w: |||||||
 A,4 A,4 |!p! ^G,2 G,2 A,4 | ^G,4!f! E,2 E,2 | C4 A,4 | C3 B, A,2 G,2 |!>(! F,4!>)! E,4 | %279
w: ||||||
w: ||||||
w: ||||||
w: ||||||
!p! G,2 G,2 G,2 ^F,2 | G,2 z2 z4 | z8 | z8 | z8 | z2!f! D2 C2 E2 | D8 | E4 C2 B,2 |!ff! C8 | %288
w: |||||||||
w: |||||||||
w: |||||||||
w: |||||||||
 G,2 z2 z4 | z8 |][M:4/4]!p! G,8 | G,2 z2 z4 |!mf! C8 | C2 z2 z4 |!f! C4 C4 | C3 C C4 | %296
w: ||||||||
w: ||||||||
w: ||||||||
w: ||||||||
 A,4!p! A,4 | A,6!>(! A,2!>)! |!pp! ^G,8 ||!f! C4 C2 C2 | C4 G,2 G,2 | A,4 A,4 | z4 A,4- | %303
w: |||||||
w: |||||||
w: |||||||
w: |||||||
 A,4 G,2 D2 | C4 B,2 B,2 | A,8 | B,6 z2 | z8 |!mf! z8 | z8 | z4 z2!f! G,2 | G,2 A,2 B,2 C2 | %312
w: |||||||||
w: |||||||||
w: |||||||||
w: |||||||||
 D4 C2!ff! E2 | E2 D2 C2 C2 | C4 B,4 | C4 C2 C2 |!<(! [F,C]8!<)! | C4 z4 | z8 |][K:G][M:4/4] z8 | %320
w: ||||||||
w: ||||||||
w: ||||||||
w: ||||||||
 z8 | z8 | z8 | z8 |!mf! z8 | D4 C2 B,2 | B,4 B,2 z2 | z4 z2 B,2 | B,3 ^C ^D2 B,2 | %329
w: |||||||||
w: |||||||||
w: |||||||||
w: |||||||||
!<(! B,6!<)!"^-" B,B, | A,6 G,2 | F,2 z2 z4 | z8 |!f! G,4 A,2 G,2 | G,2 F,2 G,2 D,2 | %335
w: ||||||
w: ||||||
w: ||||Be- * ne-|di- * ctus qui|
w: ||||||
!<(! G,A,B,C!<)! D2!<(! B,2!<)! | B,3 E E2 D2 | D2 DD!>(! CB,!>)! A,2 | B,4 z2!f! D,2 | %339
w: ||||
w: ||||
w: ve- * * * nit, qui|ve- * nit in|no- mi- ne Do- * mi-|ni. Ho-|
w: ||||
 D3 C B,2 A,2 |"^-" B,4 B,2 G,2 |!<(! G,3 A,!<)! B,2 B,2 |!>(! B,2"^-" A,G,!>)!"^-" A,4 | G,4 z4 | %344
w: |||||
w: |||||
w: san- na in ex-|cel- sis, ho-|san- na in ex-|cel- * * *|sis.|
w: |||||
 z8 | z8 | z8 | z8 |][K:C][M:4/4]"^Solo"!mf! z8 |"^-" z8 | z8 |!<(! z8!<)! | z8 |"^-"!>(! z8!>)! | %354
w: ||||||||||
w: ||||||||||
w: ||||||||||
w: ||||||||||
 z8 |!mf! z4"^Tutti" C2 C2 |"^-" C4 C4 | B,2"^-" C4"^-" B,2 | C4 z4 | z8 | z8 | z8 | z8 | z8 | z8 | %365
w: |||||||||||
w: |||||||||||
w: |||||||||||
w: |||||||||||
 z8 | z8 |!mf! z4 ^G,2 G,2 | B,4 ^G,4 | z2!<(! A,A, B,2!<)! ^C2 | B,6"^-" A,2 | ^G,2 z2 z4 | %372
w: |||||||
w: |||||||
w: |||||||
w: |||||||
!f! z8 | C6 A,2 | A,8 | A,4 z2 C2 | C4 C2 D2 | C4 C4 |!>(! C2 B,A, B,4!>)! | C4 z4 | z8 | z8 | z8 | %383
w: |||||||||||
w: |||||||||||
w: |||||||||||
w: |||||||||||
 z8 | z8 | z8 | z8 |!f! D6 D2 | D4 C2 C2 |!>(! B,4!>)! C4 |!mf! z2!<(! A,4!<)! A,2 | %391
w: ||||||||
w: ||||||||
w: ||||||||
w: ||||||||
!f! C4 G,2 E,2 |!>(! D,8!>)! | C,2 z2 z4 | z8 | z8 | z8 |] %397
w: ||||||
w: ||||||
w: ||||||
w: ||||||
V:4
 z8 | x8 | x8 | x8 | C,4 F,2 F,2 | C,4 z2 C,2 | F,8 | E,2 z2 z4 | A,2 C4 B,2 | A,4 z2 A,2 | %10
w: ||||||||||
w: ||||||||||
w: ||||||||||
 G,4 A,4 | B,4 z4 | x8 | x8 | x8 | x8 | x8 | x8 | x8 | D6 =C2 | B,4 C2 C,2 | G,4 A,2 A,,2 | %22
w: ||||||||||||
w: ||||||||||||
w: ||||||||||||
 B,,2 C,2!>(! D,4!>)! | G,4 z4 | x8 | x8 | E,2 G,4 F,2 | E,4 z2 E,2 | x8 | G,4 z4 | C,4 E,4 | %31
w: |||||||||
w: |||||||||
w: |||||||||
 A,,4 z2 A,2 | D,8 | G,2 G,2 A,2 B,2 | C2 C,2 D,2 E,2 | F,4 F,4 | G,8 | C,4 z2 C,2 | C,8 | C,4 z4 | %40
w: |||||||||
w: |||||||||
w: |||||||||
 x8 |][M:4/4] x8 | x8 | x8 | x8 | x8 | x8 | x8 | x8 | x8 | x8 | C,4 G,4 | ^F,4 G,4 | D,8 | %54
w: ||||||||||||||
w: ||||||||||||||
w: ||||||||||||||
 G,4 z2 G,2 | E,4 D,2 C,2 | G,4 G,2 G,2 | C,4 D,2 E,2 | G,4 G,2 G,2 | C4 B,2 A,2 | E,2 z2 z4 | %61
w: |||||||
w: |||||||
w: |||||||
 z2 A,,2 A,2 G,2 | F,4 G,4 | C,4 z4 | x8 | x8 | x8 | x8 | x8 | x8 | x8 | x8 | z8 | z8 | z8 | z8 | %76
w: |||||||||||||||
w: |||||||||||||||
w: |||||||||||||||
 z8 | z8 | z8 | x8 | x8 | x8 | x8 | x2 G,,4 G,,2 | C,8 | G,,2 z2 z4 | x2 C4 CC | C4 A,4 | %88
w: ||||||||||||
w: ||||||||||||
w: ||||||||||||
 x2 D4 D2 | D4 G,4 | x2 C4 C,C, | G,4 A,4 | !fermata!E,6 E,2 | A,4 A,3 B, | C4 B,2 A,2 | B,8 | %96
w: ||||||||
w: ||||||||
w: ||||||||
 A,4 A,2 A,2 | F,4 C,4 | D,8 | A,,2 z2 z4 | z8 | z8 | z8 | z8 | _B,,3 B,, B,,4 | x2 _B,,4 B,,2 | %106
w: ||||||||||
w: ||||||||||
w: ||||||||||
 F,4 _B,,4 | _E,4 _B,,4 | F,8 | _B,,2 z2 z2 D,2 | G,4 G,3 A, | _B,4 A,2 G,2 | A,8 | G,4 G,,2 G,,2 | %114
w: ||||||||
w: ||||||||
w: ||||||||
 C,4 G,,4 | D,8 | G,,2 G,2 A,2 G,2 | C,3 C, C,2 C2 | G,4 E,4 | F,4 G,4 | C,2 C2 C2 C2 | C3 C C4 | %122
w: ||||||||
w: ||||||||
w: ||||||||
 z2 C2 C2 CC | G,3 G, G,4 | x2 F,2 E,2 D,2 | C,8 | G,2 G,2 G,2 G,2 | C3 C C4 | x2 A,2 A,2 A,A, | %129
w: |||||||
w: |||||||
w: |||||||
 D4 D4 | x2 B,2 C2 E,2 | G,8 | C,4 C2 G,2 | x8 | C,2 z2 z4 |][M:4/4] G,4 A,4 | G,2 G,2 E,2 C,2 | %137
w: ||||||||
w: ||||||||
w: ||||||||
 D,8 | C,2 z2 z2 C,2 | D,4 E,4 | G,4 G,2 G,2 | A,8 | G,4 G,2 G,2 | G,4 C,2 C,2 | G,3 G, G,4 | %145
w: ||||||||
w: ||||||||
w: ||||||||
 x2 A,2 E,2 F,E, | D,4 E,4 | G,4 G,,4 | C,2 z2 z4 | x8 | A,2 A,2 C2 A,2 | E,3 E, E,4 | %152
w: |||||||
w: |||||||
w: |||||Et in u- num|Do- mi- num|
 A,2 G,2 F,2 E,2 | D,8 | A,,2 A,4 A,A, | C4 A,4 | z2 A,2 B,2 B,2 | A,6!>(! A,2!>)! | G,2 G,4 D,2 | %159
w: |||||||
w: |||||||
w: Je- * * sum|Chri-|stum, Fi- li- um|De- i|U- * ni-|ge- ni-|tum. Et ex|
 G,4 E,4 | D,8 | G,2 G,4 E,2 | ^D,3 D, E,4 | B,,4 B,,4 | E,2 z2 z4 | A,4 A,2 A,2 | C4 A,4 | %167
w: ||||||||
w: ||||||||
w: Pa- tre|na-|tum an- te|o- mni- a|sae- *|la.|||
 A,4 A,2 A,2 | ^G,3 G, A,4 | x2 F,4 F,2 | C,4 E,2 E,2 | G,4 E,2 C,2 | G,8 | C,2 z2 z4 | x8 | x8 | %176
w: |||||||||
w: |||||||||
w: |||||||||
 x8 | x8 | x8 | x8 | x8 | x8 | x8 | x8 | x8 | x4 x2 E,2 | A,,4 A,2 A,2 | E,3 E, E,2 E,2 | %188
w: ||||||||||||
w: ||||||||||||
w: ||||||||||||
 A,2 A,2 G,2 G,G, | C,4 C,2 z2 | x4 x2 C2 | A,2 E,2 C,2 A,2 | G,2 E,2 C,2 E,2 | G,8 | %194
w: ||||||
w: ||||||
w: ||||||
 !fermata!G,,8 || x8 | x8 | x8 | x8 | x8 | x8 | x8 | x8 | x8 | x8 | x8 | x8 | z4 G,2 G,2 | %208
w: ||||||||||||||
w: ||||||||||||||
w: |||||||||||||Cru- ci-|
 C4 C2 z2 | z2 CC C2 C2 | _A,4 A,2 z2 | z2 G,2 G,F,_E,D, | C,4 C,2 z2 | z2!>(! !^!C,4!>)! C,2 | %214
w: ||||||
w: ||||||
w: fi- xus|e- ti- am pro|no- bis|sub Pon- ti- o Pi-|la- to;|pas- sus,|
 z2 C,!<(!D, _E,2!<)! F,2 | G,6!>)!!>(!!>(! G,2!>)! | !fermata!C,8 || x8 | x8 | x2 G,4 A,A, | %220
w: ||||||
w: ||||||
w: pas- sus et se-|pul- tus|est.||||
 G,4 G,4 | x2 A,2 E,2 F,F, | G,8 | G,2 z2 z4 | x4 G,2 G,2 | C4 C2 E,2 | G,4 G,4 | C2 CC B,2 A,A, | %228
w: ||||||||
w: ||||||||
w: ||||||||
 E,8 | E,4 z4 | x8 | x4 x2 A,2 | D,3 D, D,2 D,D, | G,4 G,4 | C4 G,2 A,2 | E,3 E, E,2 E,E, | %236
w: ||||||||
w: ||||||||
w: ||||||||
 A,4 A,2 A,2 | E,6 F,2 | G,8 | C,4 z4 | x8 | x8 | x8 | x8 | x8 | x8 | x8 | x8 | x8 | x8 | %250
w: ||||||||||||||
w: ||||||||||||||
w: ||||||||||||||
 x4 B,2 B,2 | C4 B,2 A,2 | B,3 B, B,4 | E,6 E,2 | E,6 ^F,2 | G,4 G,2 G,2 | A,2 A,2 B,2 C2 | %257
w: |||||||
w: |||||||
w: |||||||
 B,4 B,2 B,B, | E3 E, E,2 E,E, | C4 A,4 | E,4 z4 | x8 | x8 | x2 G,2 G,2 G,2 | E,4 E,2 E,2 | %265
w: ||||||||
w: ||||||||
w: ||||||||
 G,4 A,,4 | C,2 C,2 B,,2 A,,2 | B,,3 B,, C,2 A,,2 | A,4 G,4 | C,2 z2 z4 | x2 F,2 E,2 D,2 | %271
w: ||||||
w: ||||||
w: ||||||
 C,4 G,4 | A,2 E,2 F,2 C,2 | D,4 A,,4 | E,2 E,2 A,,4 | E,4 E,2 E,2 | C4 A,4 | C3 B, A,2 G,2 | %278
w: |||||||
w: |||||||
w: |||||||
 F,4 E,4 | G,,2 G,,2 C,4 | G,,2 z2 z4 | x8 | x8 | x8 | x2 F,2 E,2 C,2 | G,8 | C,4 C2 G,2 | C,8 | %288
w: ||||||||||
w: ||||||||||
w: ||||||||||
 C,2 z2 z4 | x8 |][M:4/4] C,8 | C,2 z2 z4 | [A,,A,]8 | [A,,A,]2 z2 z4 | F,4 F,4 | C,3 C, C,4 | %296
w: ||||||||
w: ||||||||
w: ||||||||
 D,4 D,4 | A,,4 C,4 | !fermata!E,8 || C4 C2 C2 | C4 G,2 G,2 | A,4 A,4 | z4 A,2 G,2 | %303
w: |||||||
w: |||||||
w: |||||||
 ^F,4 G,2 B,,2 | D,2 ^D,2 E,2 E,2 | C,4 =D,4 | !fermata!G,6 z2 | x8 | z4 z2 C,2 | %309
w: ||||||
w: ||||||
w: ||||||
 C,2 D,2 E,^F, G,2 | D,4 G,2 G,2 | G,2 A,2 B,2 C2 | D4 C2 C,2 | C,2 D,2 E,2 F,2 | G,8 | %315
w: ||||||
w: ||||||
w: ||||||
 C,4 C,2 C,2 | x8 | C,4 z4 | x8 |][K:G][M:4/4] x8 | x8 | x8 | x8 | x8 | x8 | G,,4 A,,2 A,,2 | %326
w: |||||||||||
w: |||||||||||
w: |||||||||||
 B,,4 E,2 E,2 | E,F,G,A, B,2 B,,2 | B,,4 B,,2 B,,2 | E,6 F,G, | A,4!>(! A,,2 A,,2!>)! | D,2 z2 z4 | %332
w: ||||||
w: ||||||
w: * * qui|ve- * * * nit, qui|ve- nit in|no- mi- ne|Do- mi- *|ni.|
 x8 | G,4 A,2 G,2 | G,2 F,2 G,2 z2 | z4 z2 G,=F, | E,4 A,2 ^F,2 | G,2 G,G, C,2 D,2 | G,4 z2 D,2 | %339
w: |||||||
w: |||||||
w: |||||||
 D3 C B,2 A,2 | B,4 B,2 G,2 | G,3 A, B,2 B,2 | B,2 A,G, A,4 | G,4 z4 | x8 | x8 | x8 | x8 |] %348
w: |||||||||
w: |||||||||
w: |||||||||
[K:C][M:4/4] A,6 E,2 | F,3 E, D,4 | A,,4 z2 A,2 | A,4 A,2 B,2 | C4 G,4 | G,8 | C,4 z4 | %355
w: |||||||
w: |||||||
w: A- gnus|De- * *|i, qui|tol- lis pec-|ca- ta|mun-|di:|
 x4 E,2 E,2 | F,4 E,4 | D,2 C,2 G,4 | C,4 z4 | x8 | x8 | x8 | x8 | x8 | x8 | x8 | x8 | x4 E,2 E,2 | %368
w: |||||||||||||
w: |||||||||||||
w: mi- se-|re- re|no- * *|bis.|||||||||mi- se-|
 ^G,4 E,4 | x2 ^F,F, ^G,2 A,2 | B,4!>)!!>(! B,,4 | E,2 z2 z4 | x8 | A,,6 A,,2 | D,8 | %375
w: |||||||
w: |||||||
w: re- re,|mi- se- re- re|no- *|||||
 A,,4 z2 A,G, | F,4 F,2 F,2 | E,4 C,4 | G,8 | C,4 z4 | x8 | x8 | x8 | x8 | x8 | x8 | x8 | D6 C2 | %388
w: |||||||||||||
w: |||||||||||||
w: |||||||||||||
 B,4 C2 C,2 | G,4 A,4 | x2 A,4 A,2 | C4 G,2 E,2 | D,8 | C,2 z2 z4 | x8 | x8 | x8 |] %397
w: |||||||||
w: |||||||||
w: |||||||||
V:5
 x8 | x8 | x8 | x8 | x8 | x8 | x8 | x8 | x8 | x8 | x8 | x8 | x8 | x8 | x8 | x8 | x8 | x8 | x8 | %19
 x8 | x8 | x8 | x8 | x8 | x8 | x8 | x8 | x8 | x8 | x8 | x8 | x8 | x8 | x8 | x8 | x8 | x8 | x8 | %38
 x8 | x8 | x8 |][M:4/4] x8 | x8 | x8 | x8 | x8 | x8 | x8 | x8 | x8 | x8 | x8 | x8 | x8 | x8 | x8 | %56
 x8 | x8 | x8 | x8 | x8 | x8 | x8 | x8 | x8 | x8 | x8 | x8 | x8 | x8 | x8 | x8 | x8 | x8 | x8 | %75
 x8 | x8 | x8 | x8 | x8 | x8 | x8 | x8 | x8 | x8 | x8 | x8 | x8 | x8 | x8 | x8 | x8 | x8 | x8 | %94
 x8 | x8 | x8 | x8 | x8 | x8 | x8 | x8 | x8 | x8 | x8 | x8 | x8 | x8 | x8 | x8 | x8 | x8 | x8 | %113
 x8 | x8 | x8 | x8 | x8 | x8 | x8 | x8 | x8 | x8 | x8 | x8 | x8 | x8 | x8 | x8 | x8 | x8 | x8 | %132
 x8 | x8 | x8 |][M:4/4] x8 | x8 | x8 | x8 | x8 | x8 | x8 | x8 | x8 | x8 | x8 | x8 | x8 | x8 | x8 | %150
 x8 | x8 | x8 | x8 | x8 | x8 | x8 | x8 | x8 | x8 | x8 | x8 | x8 | E4 ^D4 | x8 | x8 | x8 | x8 | x8 | %169
 x8 | x8 | x8 | x8 | x8 | x8 | x8 | x8 | x8 | x8 | x8 | x8 | x8 | x8 | x8 | x8 | x8 | x8 | x8 | %188
 x8 | x8 | x8 | x8 | x8 | x8 | x8 || x8 | x8 | x8 | x8 | x8 | x8 | x8 | x8 | x8 | x8 | x8 | x8 | %207
 x8 | x8 | x8 | x8 | x8 | x8 | x8 | x8 | x8 | x8 || x8 | x8 | x8 | x8 | x8 | x8 | x8 | x8 | x8 | %226
 x8 | x8 | x8 | x8 | x8 | x8 | x8 | x8 | x8 | x8 | x8 | x8 | x8 | x8 | x8 | x8 | x8 | x8 | x8 | %245
 x8 | x8 | x8 | x8 | x8 | x8 | x8 | x8 | x8 | x8 | x8 | x8 | x8 | x8 | x8 | x8 | x8 | x8 | x8 | %264
 x8 | x8 | x8 | x8 | x8 | x8 | x8 | x8 | x8 | x8 | x8 | x8 | x8 | x8 | x8 | x8 | x8 | x8 | x8 | %283
 x8 | x8 | x8 | x8 | x8 | x8 | x8 |][M:4/4] x8 | x8 | x8 | x8 | x8 | x8 | x8 | x8 | x8 || x8 | x8 | %301
 x8 | x8 | x8 | x8 | x8 | x8 | x8 | x8 | x8 | x8 | x8 | x8 | x8 | x8 | x8 | x8 | x8 | x8 |] %319
[K:G][M:4/4] x8 | x8 | x8 | x8 | x8 | x8 | x8 | x8 | x8 | x8 | x8 | x8 | x8 | x8 | x8 | x8 | x8 | %336
 x8 | x8 | x8 | x8 | x8 | x8 | x8 | x8 | x8 | x8 | x8 | x8 |][K:C][M:4/4] x8 | x8 | x8 | x8 | x8 | %353
 x8 | x8 | x8 | x8 | x8 | x8 | x8 | x8 | x8 | x8 | x8 | x8 | x8 | x8 | x8 | x8 | x8 | x8 | x8 | %372
 x8 | x8 | x8 | x8 | x8 | x8 | x8 | x8 | x8 | x8 | x8 | x8 | x8 | x8 | x8 | x8 | x8 | x8 | x8 | %391
 x8 | x8 | x8 | x8 | x8 | x8 |] %397
V:6
"^Andante con moto" E2 G4!>)!!>(! F2 | E2 c2 G2 E2 | D8 | E2 G,2 C2 D2 | E2 G4 F2 | E4 z2 E2 | A8 | %7
w: |||||||
 ^G2!<(! (E2 ^F2)!<)! G2 |!f! AECA, ECDE | F2 C2- [C-F]2 [FA]2 | G4!>(! A4!>)! | %11
w: ||||
 [B,E^G]2!p!!<(! e6-!<)! |!p! e4 =f2 d2 | [ce]4 d2 c2- | c2 B2 cEGc | e2 e6 | d4 d4 | f8 | %18
w: |||||||
 [^ce]2!f! [ca]2 [dg]2 e2 | f4 z4 | z8 | z8 | z8 |!mf! z2 g2 f2 d2 | e4 d2 B2 | %25
w: |||||||
 cBAG-!>(! G2!>)! F2 | E2 G4 F2 | E2 G2 cBAG- |!<(! G4!>)!!>(! F4!<)! | D2 G2!<(! AGA!<)!B | %30
w: |||||
!f! c2 e4 d2 | c6 c2 | [Af]8 | d2!ff! g4 f2 | e2 e4 d2 | c4 z4 | z8 | z4 z2 C2 | C6 D2 | E4 E4- | %40
w: ||||||||||
 E4 z4 |][M:4/4]!f!"^Allegro moderato" z2 (G2 A2) G2 | c8 | B4 c4 | d8 | c2 A2!>(! G2!>)! F2 | E8 | %47
w: |Nicht * einspielen.||||||
 G8 | A8 | A2 G2!>(! F2!>)! E2 |!mf! D2 B2!<(! c2!<)! d2 |!f! e4 d4- | d2 c2 B4 | A8 | G4 z2 G2 | %55
w: ||||||||
 c4 d2 e2 | d4 z4 | [eg]4 [df]2 [ce]2 | [Bd]4 z4 |!p! c4 B2 A2 | ^G2!f! B2 e2 d2 |!f! c8- | c4 B4 | %63
w: ||||||||
 c2 _B2 A2 G2 |!p! F8- | A8 | _B8 | A4 A2 A2 | d4 G4 | c4 _B2 A2 | G4 A4 | G4 [E-^G]4 | A8- | %73
w: ||||||||||
 A4 ^G2 A2- | A4 ^G4 | A4 z4 | A8 | D8 | C4 B,2 A,2 | E4 z4 |!p! [EG]8 | A2 G2 F2 E2 | %82
w: |||||||||
 D4 (DC!>(!B,!>)!C | D2) z2 z4 | z8 | z2!f! G2 A2 B2 | c2 B2 A2 G2 | A2 G2 F2 E2 | D2 C2 x4 | z8 | %90
w: ||||||||
 x2 z2 z4 | d4 c4 | !fermata!B6 z2 | A4 z4 | A4 ^G2 A2 | A4 ^G4 | A4 E4 | A4 G4 | F8 | %99
w: |||||||||
 E2 A2 B2 ^c2 | d4 z4 | d4 ^c2 d2- | d4 ^c4 | d4 d4- |!p! d8- | [Fd]8 | c4 d4 |!<(! _e4!<)! d4 | %108
w: |||||||||
 c8 | d2!f! c2 _B2 [^FA]2 | G4- G3 A | _B4 A2 G2 | G4 ^F4 | G4 z4 | z8 | z8 | z2!f! G2 A2 G2 | c8 | %118
w: ||||||||||
 [GB]4 c4 | d8 | c2 z2 z4 | c4 c4- | c2 z2 z4 | d4 d4- | d2 B2 c2 d2 | e8 | d2 z2 z4 |!f! c4 c4- | %128
w: ||||||||||
 c2 z2 z4 | d4 d4- | d2 d2 e4 | d8 | c4"^rlt." z4 |"^Pleno""^a tempo" [ce]8 | c2 C2 z4 |] %135
w: |||||||
[M:4/4]!mf!"^Allegro moderato" G4 A4 | G2 z2 z2 C2 | D8 | C2 A2 G2 C2 | D4 E4 | G8 | %141
w: ||||||
!>(! [CA]8!>)! | G4!f! d4- | d4 e4 | d8 | c4 B2 A2 | d4 c4- | c4 B4 | c2 e2 dcBA | ^G2 A4 G2 | %150
w: |||||||||
 A6 A2- | A2 ^G^F G4 | A6 =G2 | F8 | E2 [CEA]4 [CEA]2 | A8 | [Ac]2 [Ac]2 [GB]2 G2- | %157
w: |||||||
 G4!>(! ^F4!>)! | G2 G4 [^FA]2 | [GB]4 c4 | d4 A4 | B2 [GB]4 [GB]2 | B3 A G4 | ^F8 | E4 ^F2 ^G2 | %165
w: ||||||||
 [EA]4 z4 | z2 [EG]2 [FA]2 [FB]2 | [Ec]4 z4 | z2 [Be]2 [Ac]2 c2- | [cf]2 z2 z4 | z8 | z8 | z8 | %173
w: ||||||||
 z2 c2 G2 [G_B-]2 | BAGF- F2 E2 | F3 A c2 d2 | d4 c4 | f3 e d2 c2 | c3 _B A4 | G8 | %180
w: |||||||
 A2!<(! A2 =B2!<)! ^c2 | d3 =c _B4 | A3 G F4 | E4 ^C4 | D2!f! f2 e2 d2 | %185
w: |||||
 [Ac]2 [FB]2!>(! [EA]2 [E^G]2!>)! |!mf! [CEA]8 | [^GB]8 | [Ac]4!<(! [Bd]4!<)! | [ce]4 [Gc]2 e2 | %190
w: |||||
 c2 A2 E2 c2 |!>(! A2 E2 C2!>)! E2 | [CE]8- |"^rit." [CE]4 [B,D]2 [A,C]2 | !fermata!D8 || %195
w: |||||
"^Andante sostenuto" E4 z4 | C4 D4 | z EcB AFEC | E3 D E4 | G4 AGFE | D8 | C2 z2 G4 | %202
w: |||||||
 Acfe dc!>)!!>(!BA | G2 !^!C2 E2 z2 | z2 C2 E2 E2 | F6 F2 | D8- | D4 z4 | c6 c>d | _e2 z2 z4 | %210
w: ||||||||
 [F_A-]6!>)!!>(! A>F | D2 z2 z2 =B,2 | C6 C2- | C8- |!<(! _E8!<)! | D8 | !fermata!=E8 || %217
w: |||||||
"^Tempo I"!f! z8 | z4 G2 Bc | d2 d4 c2 | c4 B4 | c2 [Ac]2 [GB]2 [C-FA]2 | [DG]8- | [DG]2 G2 A2 B2 | %224
w: |||||||
 [Gc]4 [Bd]4 | [ce]4 [Gc]2 c2 | d4 [Bd]4 | [Ac]4 B2 A2- | A4!>(! ^G2!>)! ^F2 | ^G6 E2 | %230
w: ||||||
"^cresc." A6 ^c2- | [ce]4- [ce]2!f! [^ce]2 | [df]8 | [Bd]8 | [ce]4 [Bd]2 [Ac]2 | [^GB]8 | %236
w: ||||||
 [Ac]6 c2 | e8 | d8 | c6 e2- | e2 d2 c2 B2 | A2 G2 ^F4 | G2 A2 B2 c2 | d8 | e8 | d2 d3 cBA | B8 | %247
w: |||||||||||
 A6 B2 | c6 BA | B6!mf! b2 | a2!mf! g2 ^f2 e2 | c4 B2 A2 | B8 |!p! E8 |"^cresc." E6 ^F2 | G8 | %256
w: |||||||||
 A4 B2 c2 | B3 A G2 ^F2 | [CE]8- | [CE-]8 | E4 e2 d2 | c2 d2 B2 c2 | [^FA]2 G4 F2 | G2 z2 z4 | %264
w: ||||||||
 E6 C2 | D8 | C2 G6- | G6 A2 | F4 G4 | E2 G2 A3 B | c2 B2 c2 d2 | e4 d4 | c2 [GB]2 [FA]2 [EG]2 | %273
w: |||||||||
 F4 E4 |!p! E8 | E4 z4 | A8 | c3 B A2 G2 |!>(! F4!>)! E4 |!p! D4 _E4 | D6!mf! G2 | c2 d2 e2 c2 | %282
w: |||||||||
 e2 f2!<(! g2 c2 | f4-!<)! fedc |!f! B4 c4- | c4 B4 | c4 z4 |!ff! [ce]8 | c2 z2 c4- | c2 z2 z4 |] %290
w: ||||||||
[M:4/4]"^Andante" z8 |!p! z2!<(! (e2 c2 ^G2!<)! | A4) z4 | z2!mf! (c2!<(! A2 E2!<)! | F4) z4 | %295
w: |||||
 z4 z2!mf! G2 | F8 | E8 |!pp! !fermata!E8 ||"^Allegro" c8- | c4 G4 | A8- | A4 z4 | z8 | z8 | z8 | %306
w: |||||||||||
 z4 !fermata!z2!mf! G2 | G2 A2 B2 c2 | d4 c2 e2 | e2 d2 c2 B2 | A4 B2 z2 |!f! G2 z2 z2 c2 | %312
w: ||||||
 d4 c2!ff! [eg]2 | [eg]2 [df]2 [ce]2 [ce]2 | d8 | c4 z4 | z2!<(! C2- [CF]2- [CFA]2!<)! | [EG]4 C4 | %318
w: ||||||
 C4 z4 |][K:G][M:4/4]!p!"^Andante" B4 A2 G2 | F4 G2 D2 | GABc d2 [Bd]2 | [Ac]4 [GB]4 | %323
w: |||||
 [FA]4!>)!!>(! [GB]4 | [FA]2!<(! D2 A2!<)! ^A2 |!mf! B4 =A2 G2 | F4 G2 z2 | z8 | z4 z2 F2 | %329
w: ||||||
!<(! GFGA!<)! B2 AG | F4!>(! E4!>)! | D2 d2 =c2 B2 | A2 c2!>(! B2!>)! A2 | G4 A2 G2- | %334
w: |||||
 G2 F2 G2 z2 | z4 z2!<(! d2!<)! | e3 d c2 d2 | B4!>(! AG!>)! F2 | G2!f! D2 G2 B2 | A8 | B6 z2 | %341
w: |||||||
!<(! G8-!<)! |!>(! G6 F2!>)! | G2 B2 AGFE | D2 B2 AGFE |"^dim." D2 E2 D2 C2 | %346
w: |||||
 B,2 z2!pp! [B,G]2 z2 | G4 z4 |][K:C][M:4/4]"^Andante sostenuto" E8 | F8 | E2!<(! C2 E2!<)! A2 | %351
w: |||||
 A2 GF A2 GF | E8 | D8 | E4!mf! c2 c2 | e4!mf! c4 | z4 c2 c2 | f2 e2 d4 | c2 e2 c2 B2 | %359
w: ||||||||
!<(! A2!<)! a2 gfed- | d2 c4!>)!!>(! B2 |!p! c6 [CG]2 | F8 | E2 E2 G2 c2- | c2!<(! BA c2!<)! d2 | %365
w: ||||||
 e4 B2 ^G2 | ^F8 | ^G4 z4 | z4!mf! e2 B2 | ^c4!<(! B2!<)! A2 | ^G4!>)!!>(! ^F4 | E2 (=f2 e2) d2 | %372
w: |||||||
 c2 B2 A2 ^G2 | A6 E2 | F8 | E6 z2 | z8 | z8 | z8 | z2!<(! G2- c2!<)! d2 |!p! [c-e]4 [cf]2 [Bd]2 | %381
w: |||||||||
 [ce]4 d2 c2- | c2 B2 cEGc | e2 e6 | d6 d2 | f8 | [^ce]2!f! [ca]2 [dg]2 e2 | f4 z4 | z8 | z8 | %390
w: |||||||||
!mf! A2 z2 z4 | G6 E2 |!>(! D8!>)! | C2!p! e2 c2 A2 | G4 z2!>(! F2 | E2!>)!!pp! z2 E2 z2 | E4 z4 |] %397
w: |||||||
V:7
 C8- | C2 z2 z2 C2- | C2 B,2 A,2 B,2 | C2 z2 C2 B,2 | C8- | C4 z2 C2- | C6 D2 | E2 x2 z4 | x8 | %9
 x6 C2- | [CE]8 | x2 [E^G]2 [^FA]2 [GB]2 | [Ac-]4 [=FAc]2 [=G-B]2 | [CG]4 F2 E2 | [DG-]4 [EG]2 z2 | %15
 z2 c6- | c4 B4 | A6 B2 | A2 A4 A2- | A4 z4 | x8 | x8 | x8 | x2 G2 A2 B2 | cBAG F4 | E4 C2 D2 | %26
 C8- | C4 z2 E2 | C8 | B,2 x6 | G4 ^G4 | [EA]6 A2 | x8 | G2 G6- | G2 E2 F2 G2 | A4 z4 | x8 | %37
 x4 x2 C2- | C8- | C4 C4- | C4 z4 |][M:4/4] z8 | z2 E2 F2 E2 | D2 G4 G2 | A4 G2 F2 | E2 F2 E2 D2 | %46
 C8 | D2 ^CD E2 D2 | =C2 DE F2 E2 | D2 E2 D2 C2 | B,2 G4 G2- | G8 | A4 G4- | G2 ^F2 E2 F2 | %54
 D4 z2 G2- | G8- | G4 z4 | G8- | G4 z4 | E8- | E2 z2 z4 | z2 [EA]2 [EA-]4 | D4- D4 | %63
 E2 D2 C2 [_B,C-]2 | C8 | F8 | F2 E2 D2 E2 | F4 z4 | F4 E4 | F8 | E4 F4 | E4 D4 | [CE]8- | %73
 [CE]4 [B,E]2 [A,E-]2 | [B,E-]8 | [CE]8 | F2 E2 D2 C2- | C2 B,2 A,2 B,2 | C4 B,2 A,2 | E4 z4 | x8 | %81
 F2 E2 D2 C2 | B,4 B,A,G,A, | B,2 z2 z4 | x8 | x8 | x8 | x8 | x8 | x8 | x8 | G4 E4 | E6 z2 | %93
 [CE]4 z4 | [CE]4 B,2 A,2 | [B,E]8 | [CE]4 C4 | F4 E4 | D8 | ^C2 C2 D2 E2 | F4 z4 | F4 E2 D2 | E8 | %103
 [FA]4 D4- | [DF-]8 | x8 | F8 | G4 F4 | F8- | F2 D6 | D8 | D6 _B,2 | D8- | D4 z4 | x8 | x8 | z8 | %117
 [EG]8 | D4 G4 | A4 G2 F2 | E2 z2 z4 | [EG]4 [EG]4- | [EG]2 z2 z4 | [GB]4 [GB]4- | [GB]2 G4 G2 | %125
 G8- | G2 z2 z4 | [EG]4 [E-G]4 | [EA]2 z2 z4 | [FA]4 [FA]4 | [DG]2 G6 | G6 F2 | E4 z4 | G8 | %134
 [EG]2 C2 z4 |][M:4/4] E4 F4 | E2 z2 z2 C2- | C4 B,4 | C2 x6 | B,4 C4 | D4 E2 D2 | x8 | B,4 G4- | %143
 G4- G4- | G8 | E4 G2 F2 | F4 E4 | D8 | E2 z2 F4- | F2 E2 DFED | C6 E2 | E6 D2 | C8- | C4 B,4 | %154
 C2 x6 | [CE]8 | E2 E2 D2 D2 | D8- | D2 D4 D2 | D4 G4- | G4 ^F4 | G2 D4 E2 | ^F4 E4- | E4 ^D4 | %164
 E6 =D2 | x8 | x2 C4 D2 | C4 z4 | x2 E4 c2 | A2 z2 z4 | x8 | x8 | x8 | z4 z2 C2 | C4- C4 | %175
 C2 z2 z2 A2 | G8 | F8 | G4 F2 E2 | D2 F4 ED | ^C2 C2 D2 E2 | D8 | E4 D4 | _B,4 x4 | x2 A6 | %185
 E2 D2 C2 B,D | x8 | E8 | E4 =G4 | G4 E2 z2 | x8 | x6 C2 | x8 | x8 | B,8 || C4 z4 | C3 B, x4 | %197
 C4 z2 C2- | C8 | D2 E2 C4- | C2 B,!>(!A,!>)! B,4 | x4 D2 E2 | F2 A4 F2 | E2 C2- C2 z2 | %204
 x2 C2- C2 B,2 | A,6 C2- | C4!>(! B,2!>)! A,2 | B,4 z4 | [_EG]6 G>F | _E2 z2 z4 | C6 C2 | x8 | x8 | %213
 x8 | C8- | C4!>(! B,4!>)! | C8 || z2 G2 G2 G2 | A4 G4- | G2 G4 EF | G6- GF | E2 E2- E2 x2 | %222
 C4 B,2 A,2 | B,2 z2 z4 | E4 G4 | G4 E2 G2 | G4 G4 | E4 [DE]2 [CE-]2 | E8- | E8 | z4 z2 A2- | %231
 A4- A2 A2 | A8 | G8 | G4 G2 E2 | E8- | E6 A2 | G8- | G6 F2 | E6 c2- | c2 B2 A2 G2 | E6 DC | %242
 B,2 ^F2 G2 A2 | B4 A2 G2 | G2 AB c4 | B2 B3 AG^F | ^F4 G2 F2 | E6 D2 | E8- | E4 ^D2 z2 | %250
 z2 B2 A2 G2 | E4- E4 | ^D8 | x8 | x8 | D2 B,6 | E8 | G3 ^F E2 D2 | x8 | x8 | B,4 [EB]4 | %261
 E2 D2 [DG]2 [EG]2 | C2 E4 D2- | D2 z2 z4 | C8- | C4 B,4 | C2 E2 D2 C2 | D4 E4 | F4 D4 | C2 z2 z4 | %270
 z2 G4 G2- | G8 | E2 E2 C4 | D4 C4 | B,4 C4 | B,4 z4 | [CE]4 [DF]4 | [CE]8 | D4 C4 | B,4 C4 | %280
 B,6 G2 | E2 D2 C2 ([CE]2 | G2) F2 E2 [EG]2 | [Fc]4 A4 | G4- G4- | [DG-]8 | [EG]4 z4 | G8 | %288
 [EG]2 z2 [EG]4- | [EG]2 z2 z4 |][M:4/4] x8 | x8 | x8 | x8 | x8 | x4 x2 E2 | D8 | C8 | B,8 || %299
 [EG]8- | [EG]4 C4- | [CE]8- | [CE]4 z4 | x8 | x8 | x8 | x8 | E2 z2 z2 G2 | A2 GF E2 c2 | %309
 c2 B2 A2 G2- | G2 ^F2 G2 z2 | E2 z2 z2 E2 | A2 GF E2 G2- | G8 | G6 F2 | [EG]4 z4 | x8 | C4 C4 | %318
 C4 z4 |][K:G][M:4/4] [DG]4 C2 B,2 | [A,D-]4 [B,D]2 x2 | z4 z2 D2- | D4- D4 | D6 ^C2 | %324
 D2 D2 F2 E2 | [DG]4 C2 (B,2 | E2) ^D2 E2 z2 | z4 z2 B,2 | B,^C^DE F2 D2 | E^DEF G2 FE | =D6 ^C2 | %331
 D2 F2 E2 G2 | F2 E2 D2 C2 | [B,D]4 C2 B,2 | D4- D2 z2 | x4 x2 G2 | ^G4 A4 | =G4 E2 D2- | %338
 D2 D2- D2 [DG]2 | F8- | F4 G2 z2 | E8 | D8- | D4 C4 | B,2 D2 C4 | B,2 C2 B,2 x2 | x8 | B,4 z4 |] %348
[K:C][M:4/4] C8 | D8 | C2 z2 z2 E2 | F2 C2 F2 ED | C8- | C2!>(! B,A,!>)! B,4 | C4 z4 | z4 G2 G2 | %356
 A4 G4 | G6- GF | E2 z2 G4 | F2 A6 | G8 | [EG]6 C2 | C8- | C2 z2 z2 [EG]2 | [EA]2 E4 G2 | ^G6 E2- | %366
 E4 ^D4 | E4 z4 | x4 ^G4 | A4 ^G2 ^F2 | E4 ^D4 | E2 z2 z2 =F2 | E2 [DF]2 [CE]2 [B,E]2 | [CE]6 C2 | %374
 D8 | C6 z2 | x8 | x8 | x8 | z2 G2 E2 D2 | [CG]4 [FA]2 G2 | [CG]4 F2 E2 | [DG-]4 [EG] z z2 | %383
 z2 c6 | c4 B4 | A6!>)!!>(! B2 | A2 A4 A2 | A4 z4 | x8 | x8 | F2 z2 z4 | C6 C2- | C4 B,4 | %393
 C2 z2 E4- | E2 E2 C2 C2- | C2 z2 C2 z2 | C4 z4 |] %397
V:8
"^Man."!p! G,2 E,2 A,4 | G,2 z2 z2 G,2- | G,8- | G,2 z2!<(! G,4-!<)! |!p! G,2 E,2 A,4 | %5
 G,4 z2 G,2 |!<(!!>(! [F,A,]8!<)!!>)! | B,2"^P" E,2 ^F,2 ^G,2 | A,E,C,A,, E,C,D,E, | %9
 F,2 C,2 A,,2 F,,2 | C,4 A,,4 | E,2 x6 | z8 |"^Man." x4 F,4 | G,4 C,2 z2 | %15
 z2 CB,"^Edited by Rev. Andris Solims 26-07-2019" CDEF | z8 | D^CDE F2 D2 | z2"^P" A,2 B,2 ^C2 | %19
 D4 z4 | z8 | z8 | z8 |"^P" G,8- | G,8- | G,8 | G,2 E,2 A,4 | G,4 z2 C2 | A,8 | G,2 G,2 A,G,A,B, | %30
 E2 C2 B,4 | A,6 z2 | z2 A,2 D2 C2 | B,4 C2 D2 | C2- C4 B,2 | A,4 z4 | z8 | z4 z2!p! C,2 | %38
 A,4!>(! _A,4!>)! | G,4!pp! G,4- | G,4 z4 |][M:4/4]!f! z2 G,2 A,2 G,2 |"^P" C8 | D4 C4- | C4 B,4 | %45
 C2 z2 z4 |"^Man."!p! G,8 | B,,4 C,2 B,,2 | A,,4 A,2 G,2 | F,8 |"^P" x2 D2 C2 B,2 | C4 B,4 | D8- | %53
 D6 C2 | B,4 z2 G,2- | G,4 B,2 C2 | B,4 z4 | C,4 D,2 E,2 | G,4 z4 |"^Man." A,4 ^G,2 A,2 | %60
 B,2 z2 z4 | z2"^P" A,,2 A,2 G,2 | F,4 G,4 | C2 z2 z2"^Man." x2 | A,8 | C8- | C8- | C4 z4 | %68
 _B,4 C2 B,2 | A,4 G,2 F,2 | C,6 =B,,2 | C,4!<)!!<(! =B,,4 |!p! A,,8- | A,,4 B,,2 C,2 | E,8 | %75
 A,4 z4 | C4 A,4 | G,6 F,2 |"^P"!f! G,4 B,,2 A,,2 | E,4"^Man." z4 | C8 | F,8 | G,8- | G,2 z2 z4 | %84
 z8 |"^P" z2 G,2 A,2 B,2 | C2 B,2 A,2 G,2 | A,2 G,2 F,2 E,2 | x4 B,2 A,2 | B,A,G,^F, G,=F,E,D, | %90
 C,2 z2 z4 | B,4 A,4 | ^G,6"^P" z2 |!f! A,4 z4 | A,,4 B,,2 C,2 | E,8 | A,,4!p! A,4 | C8 | %98
!>(! A,8!>)! | A,2!f! G,2 F,2 E,2 | D,4 z4 | D,4 E,2 F,2 | A,8 | D,4!>(! z4!>)! | _B,8- | B,8 | %106
 A,4 _B,4- | B,8- |!>(! B,4 A,4!>)! | _B,2 A,2 G,2 D,2 | G,4- G,3 ^F, | G,4 ^F,2 G,2 | A,8 | %113
 =B,4 z4 | z8 | z8 | z2 G,2 A,2 G,2 | [G,C]8 | x4 C4- | C4 B,4 | C2 z2"^accel." z4 | C4 C4- | %122
 C2 z2 z4 | D4 D4- | D2 D2 C2 B,2 | C8 | B,2 z2 z4 | [C,C]4 [C,C]2 [B,,B,]2 | [A,,A,]2 z2 z4 | %129
 [D,D]4 [D,D]2 [C,C]2 | x2 D2 C2 C2- | C4 B,4 | C4 z4 |"^P" C8- | C2 C,2 z4 |][M:4/4] C8- | %136
 C2 z2 z2 G,2 | A,4 G,2 F,2 | E,2 C4 G,2 | G,4 G,4- | G,8- | G,4 ^F,4 | G,4 B,4- | B,4 C4 | B,8 | %145
 A,4 E2 C2 | A,4 G,4- | G,8- | G,2 z2 z4 | z8 | E,6 A,2 | B,8 | A,6 C2 | A,8- | A,2 A,4 A,2 | %155
 A,8- | A,2 A,,2 B,,4 | A,8 | B,2!mf! B,4 D,2 | G,4 C4 | A,4 D4- | D2 G,4 E,2 | B,8- | B,6 A,2 | %164
 G,2!f! ^G,2 A,2 B,2 | C4 z4 | z2!f! C,2 F,2 D,2 | A,,4 z4 | z2 ^G,2 A,2 C2- | C2 z2 z4 | z8 | z8 | %172
 z8 | z4 z2 E,2 | F,2 A,,2!>)!!>(! G,3 _B, |!p! A,2 z2 z2"^Man." F,2 | E,8 | D,8 | E,4 F,4 | %179
 _B,,8 | A,,2 A,4 G,2 | F,3 ^F, G,=F,E,D, | ^C,4 D,=C,_B,,A,, | G,,4!>)!!>(! A,2 G,2 | %184
 F,2 D,2 C,2 =B,,2 | A,,2 D,2 E,4 | A,,4 A,4 | E,8 | A,4 G,4 | C,6 z2 | z4 z2 C2 | %191
 A,2 E,2 C,2!p! A,2 | G,8 | G,8 |!pp! G,8 ||"^Man."!p! G,4 z4 | A,3 G, A,2 B,2 | A,4 z2 A,2- | %198
 [A,,A,]8 | G,2!<(! C2!<)! A,3 C | G,6 F,2 | [E,A,]2 z2 G,2 C2- | C6- C2- | C2!>(! z2 z4!>)! | %204
 z2 C,6 |!<(! F,6!<)! A,2 | G,8- | G,4"^P" z4 |!f! C,6 G,2- | G,2 z2 z4 | F,6- F,>D, | %211
 G,2 z2 z2!p! F,2 |!>(!!>(! _E,6!>)! z2!>)! |!pp! _A,8 | G,8- | G,8 |!pp! G,8 || z8 | z4 z2 DC | %219
"^P" B,2 B,4 C2 | D8 | C2 A,2 E,2 F,2 | G,8- | G,2 G,2 A,2 B,2 | C2 B,A, G,F,E,D, | C,4 C,2 C2 | %226
 B,4 G,,4 | A,,4 B,,2 C,2 | B,8- | B,6 z2 | z8 | z4 A,G,F,E, | D,8 | G,8 | C4 G,2 A,2 | E,8 | %236
 A,6 C2 | C8- | C4 B,4 | C6 z2 | G,,4 A,,2 B,,2 | C,4"^Man."!>)!!>(! D,4 | G,2 D,2 G,4- | %243
 G,4 A,2 B,2 | C4- CDE^F | G4 D4 | ^D4 E2 =D2 | C6 B,2 | A,6 B,C | B,6 z2 |"^P" z2 E,2 ^F,2 G,2 | %251
 A,4 B,2 C2 | B,2 A,2 G,2 ^F,2 | B,2 A,2 G,2 B,2 | A,2 B,2 C2 B,A, | B,,2 E,4 D,2 | C,4 B,,2 A,,2 | %257
 B,6 A,2 |!f! [C,G,]8 | [A,,A,]8 | ^G,4 G,4 | A,2 ^F,2 =G,2 C,2 | D,2 B,2 A,3 C | %263
 B,2!mf! B,2 C2 [B,D]2 | G,6 G,2 | G,6 F,2 | E,2 G,6- | G,6 A,,2 | C4 B,4 | [G,C]2 z2 z4 | %270
 z2 D2 C2 B,2 | C4 B,4 | C2 E,2 F,2 C,2 | A,8 | ^G,4 A,4 | ^G,4 z4 |!f! A,,4 D,4 | A,,6 C,2 | %278
 A,4 G,4 |"^Man." G,6 ^F,2 | G,6 z2 | z8 | C6 _B,2 | A,4 C2 A,2 | D4 C2 C,2 | G,8 | C,4 z4 | %287
"^P" [G,C]8- | [G,C]2 z2 [G,C]4- | [G,C]2 z2 z4 |][M:4/4] z8 |"^Man." z2 E2 C2 ^G,2 | A,4 z4 | %293
 z2 C2 A,2 E,2 | F,4 z4 | z4"^P" z2 C2 | A,8 |!p! A,8 | ^G,8 ||"^P"!f! C,CB,A, G,F,E,D, | %300
 C,A,G,F, E,D,C,B,, | A,,8- | A,,4 z4 | z8 | z8 | z8 | z4 !fermata!z2 z2 | C2 z2 z2 C2- | %308
 C2 B,2 C2 z2 | C,2 D,2 E,^F, G,2 | D,4 G,2 z2 | C2 z2 z2 C2- | C2 B,2 C2 C,2 | C,2 D,2 E,2 F,2 | %314
 G,8- | G,4 z4 | z2 C2 A,2 F,2 | C,4 C,4 | C,4 z4 |][K:G][M:4/4]"^Man." G,,4 C,4 | D,4 G,,2 z2 | %321
 z4 z2 G,2- | G,2 F,2 G,2 B,,2 | D,8- | D,2"^P" z2 D,4 | G,,4 A,,4 | B,6 z2 | E,F,G,A, B,2 B,,2 | %328
 B,3 ^C ^D2 B,2 | B,8 | A,6 G,2 | F,2 z2 z4 | D,4 E,2 F,2 |!f! G,,4 C,4 | A,4 B,2 D,2 | %335
 G,A,B,C D2 B,2 | B,3 E E2 D2 | D4 CB, A,2 | B,2 D,2 B,,2 G,,2 | D8 | B,6 z2 | B,8 | B,4 A,4 | %343
 B,2 D,2 E,2 F,2 | G,2 D,2 E,2 F,2 | G,6 [E,G,-]2 | [D,G,]2 z2 D,2 z2 | D,4 z4 |] %348
[K:C][M:4/4]"^Man."!p! A,8 | A,8- | A,2 z2 z2 C2- | C2 A,4 B,2 | G,8- | G,8- | G,4 z4 | z4"^P" C4 | %356
 C4- C4 | B,2 C4 B,2 | C2 z2 C4- | C2 ^C2 D2 F2- | F2 E2 D4 |"^Man." C,6 E,2 | A,8 | %363
 G,2 z2 z2 CB, | x2 C2 A,2 B,2- | B,8 |!>(! B,8-!>)! | B,4"^P"!mf! ^G,2 G,2 | B,4 ^G,4 | %369
 z2 A,2 B,2 ^C2 | B,6 A,2 | ^G,2 z2 z2 B,2 | A,2 D,2 E,4 | x4 x2 A,2 | A,8 | A,6 z2 | z8 | z8 | %378
 z8 | z8 | z8 | x4 F,4 | G,4 C,2 z2 | z2 CB, CDEF | G2 D2 G2 FE | D^CDE F2 D2 | z2 A,2 B,2 ^C2 | %387
 D4 z4 | z8 | z8 | C2 z2 z4 |!f! x4 G,4- | G,6 F,2 | E,2"^Man." z2 G,4- | G,6 A,2 | %395
 G,2"^P" z2 G,2 z2 | G,4 z4 |] %397
V:9
 C,4 F,4 | C,2 z2 z2 C,2 | G,,8 | C,2 z2 E,2 D,2 | C,4 F,4 | C,4 z2 C,2 | x8 | E,2 x6 | x8 | x8 | %10
 x8 | x8 | x8 | x8 | x8 | z8 | x8 | z8 | x8 | x8 | x8 | x8 | x8 | G,,8- | G,,8- | G,,4 A,,2 B,,2 | %26
 C,4 F,4 | C,4 z2 C,2 | F,8 | x8 | C2 C,2 E,4 | A,,6 A,2 | D,8 | G,4 A,2 B,2 | C2 C,2 D,2 E,2 | %35
 F,4 z4 | x8 | x4 x2 C,2 | F,8 | C,4 C,4- | C,4 z4 |][M:4/4] z8 | z2 C,2 D,2 C,2 | G,2 F,2 E,4 | %44
 F,2 D,2 G,4 | C,8- | C,8 | x8 | x8 | x8 | G,2 F,2 E,2 D,2 | C,4 G,4 | ^F,4 G,4 | D,8 | %54
 G,4 z2 G,2 | E,4 D,2 C,2 | G,4 z4 | x8 | x8 | A,,4 B,,2 C,2 | E,2 z2 z4 | x8 | x8 | %63
 C,2 C,2 D,2 E,2 | F,8- | F,8 | G,8 | F,4 z4 | x8 | x8 | x8 | x8 | x8 | x8 | x8 | x8 | F,4 F,4 | %77
 G,4 G,,4 | [C,E,]4 B,,2 A,,2 | E,4 z4 | x8 | x8 | x8 | x8 | x8 | x8 | x8 | x8 | %88
 D,2 C,2 B,,2 A,,2 | B,,A,,G,,^F,, G,,=F,,E,,D,, | C,,2 z2 z4 | G,4 A,4 | !fermata!E,6 z2 | x8 | %94
 x8 | x8 | x8 | F,4 C,4 | D,8 | x8 | x8 | x8 | x8 | x8 | _B,,8- | B,,8 | F,4 _B,,4 | _E,4 _B,,4 | %108
 F,8 | x8 | _B,,4- B,,3 A,, | G,,4 D,2 _E,2 | D,8 | G,4 z4 | x8 | x8 | z8 | C,8 | G,4 E,4 | %119
 F,4 G,4 | [C,G,]2 z2 z4 | [C,G,]4 [C,G,]4- | [C,G,]2 z2 z4 | [G,B,]4 [G,B,]4- | %124
 [G,B,]2 F,2 E,2 D,2 | C,8 | G,2 z2 z4 | x8 | x8 | x8 | [B,,B,]2 B,2 C2 E,2 | G,8 | C,4 z4 | %133
 [C,G,]8- | [C,G,]2 C,2 z4 |][M:4/4] C,4 F,4 | C,2 z2 z2 E,2 | F,4 G,2 G,,2 | C,2 F,2 E,2 E,2 | %139
 G,4 C,4 | B,,4 C,2 B,,2 | A,,4 D,4 | G,,4 G,4- | G,4 C,4 | G,8 | A,4 E,2 F,E, | D,4 E,4 | G,,8 | %148
 C,2 z2 D,4- | D,2 C,2!>)!!>(!!>)!!>(! B,,4 | A,,6 C,2 | E,8 | A,2 =G,2 F,2 E,2 | D,8 | A,,2 x6 | %155
 x8 | x8 | D,8 | G,2 G,4 x2 | x4 E,4 | D,8 | G,2 x6 | ^D,4 E,4 | B,,8 | E,8 | [A,,A,]4 z4 | x8 | %167
 x8 | x2 x4 C2 | F,2 z2 z4 | x8 | x8 | x8 | x8 | x4 C,4 | F,2 x6 | x8 | x8 | x8 | x8 | x8 | x8 | %182
 x8 | x4 A,,4 | D,2 x6 | x8 | x8 | x8 | x8 | x8 | x8 | x8 | G,2 E,2 C,2 E,2 | x8 | !fermata!G,,8 || %195
 C,4 z4 | x4 F,4 | A,,4 z2 A,,2- | x8 | B,,2 C,2 F,4 | G,4 G,,4 | A,,2 z2 B,,2 C,2 | F,6 A,2 | %203
 C2 C,2 A,,2 z2 | x8 | x8 | x8 | x8 | x6 _E,>D, | C,2 z2 z4 | x8 | =B,,2 z2 z2 G,,2 | _A,,6 z2 | %213
 F,8 | C,8 | G,,8 | !fermata!C,8 || x8 | x4 x2 B,A, | G,2 G,4 A,2 | G,8 | A,2 x6 | x8 | x8 | x8 | %225
 x6 E,2 | G,4 x4 | x8 | E,8- | E,6 z2 | x8 | x8 | x8 | x8 | x8 | x8 | x6 A,2 | E,6 F,2 | G,8 | %239
 [C,G,]6 z2 | x8 | x8 | x8 | x8 | x8 | x8 | x8 | x8 | x8 | x8 | x8 | x8 | x8 | G,2 ^F,2 E,2 D,2 | %254
 C,2 B,,2 A,,2 D,C, | x8 | x8 | E,6 B,,2 | x8 | x8 | E,4 x4 | x8 | x2 E,2 C,2 D,2 | %263
 G,2 =F,2 E,2 D,2 | C,6 E,2 | G,4 G,,4 | C,2 C,2 B,,2 A,,2 | B,,4 C,2 x2 | A,4 G,4 | C,2 z2 z4 | %270
 z2 F,2 E,2 D,2 | C,4 G,4 | A,2 x6 | D,4 A,,4 | E,4 A,,4 | E,4 z4 | x8 | x8 | D,4 E,4 | G,,4 C,4 | %280
 G,,6 z2 | x8 | z8 | z4 F,4 | F,4 E,2 x2 | x8 | x8 | C,8- | C,2 z2 C,4- | C,2 z2 z4 |][M:4/4] x8 | %291
 x8 | x8 | x8 | x8 | x4 x2 C,2 | D,8 | A,,4!>(! C,4!>)! | !fermata!E,8 || x8 | x8 | x8 | x8 | x8 | %304
 x8 | x8 | x8 | C,2 z2 z2 E,2 | F,2 G,2 C,2 C,2 | x8 | x8 | C,2 z2 z2 A,2 | F,2 G,2 C,2 x2 | x8 | %314
 x8 | C,4 z4 | x8 | x4 C,4 | C,4 z4 |][K:G][M:4/4] x8 | x8 | x8 | x8 | x8 | x8 | x8 | %326
 B,,4 E,2 E,2 | x8 | B,,6 B,,2 | E,6 F,G, | A,4 A,,4 | D,8- | D,8 | x8 | D,4 G,2 z2 | z4 z2 G,=F, | %336
 E,4 A,2 ^F,2 | G,4 C,2 D,2 | G,2 x6 | D,8 | ^D,4 E,2 z2 | E,6 ^C,2 | D,8 | G,,8- | G,,8- | G,,8- | %346
 G,,2 z2 G,,2 z2 | G,,4 z4 |][K:C][M:4/4] A,,8 | D,8 | A,,2 z2 z2 A,G, | F,6 G,2 | C,8 | G,,8 | %354
 C,4 z4 | z4 E,2 E,2 | F,4 E,4 | D,2 C,2 G,4 | C,2 z2 E,4 | F,8 | G,8 | x8 | F,8 | C,2 x6 | %364
 A,6 G,F, | E,8 | B,,8 | E,4 E,2 E,2 | ^G,4 E,4 | x2 ^F,2 ^G,2 A,2 | B,4 B,,4 | E,2 z2 z2 ^G,2 | %372
 x8 | A,,6 A,,2 | D,8 | A,,6 z2 | x8 | x8 | x8 | x8 | x8 | x8 | x8 | x8 | x8 | x8 | x8 | x8 | x8 | %389
 x8 | F,2 z2 z4 | E,4 E,,2 F,,2 | G,,8 | C,2 z2 C,4- | C,4 E,2 F,2 | C,2 z2 C,2 z2 | C,4 z4 |] %397
V:10
 x8 | x8 | x8 | x8 | x8 | EGce gece | x8 | x8 | x8 | x8 | x8 | x8 | x8 | x4 A4 | x8 | x8 | %16
 G2 D2 G2 FE | x8 | x8 | x8 | x8 | x8 | x8 | x8 | x8 | x8 | x8 | x8 | x8 | x8 | x8 | x8 | x8 | x8 | %34
 x8 | x8 | x8 | x8 | x8 | x8 | x8 |][M:4/4] x8 | x8 | x8 | x8 | x8 | x8 | x8 | x8 | x8 | x8 | x8 | %52
 x8 | x8 | x8 | x8 | x8 | x8 | x8 | x8 | x8 | x8 | x8 | x8 | x8 | x8 | x8 | x8 | x8 | x8 | x8 | %71
 x8 | x8 | x8 | x8 | x8 | x8 | x8 | x8 | x8 | x8 | x8 | x8 | x8 | x8 | x8 | x8 | x8 | x8 | x8 | %90
 x8 | x8 | x8 | x8 | x8 | x8 | x8 | x8 | x8 | x8 | x8 | A8 | A8 | x8 | x8 | x8 | x8 | x8 | x8 | %109
 x8 | x8 | x8 | x8 | x8 | x8 | x8 | x8 | x8 | x8 | x8 | x8 | x8 | x8 | x8 | x8 | x8 | x8 | x8 | %128
 x8 | x8 | x8 | x8 | x8 | x8 | x8 |][M:4/4] x8 | x8 | x8 | x8 | x8 | x8 | x8 | x8 | x8 | x8 | x8 | %146
 x8 | x8 | x8 | x8 | x8 | x8 | x8 | x8 | x8 | x8 | x8 | x8 | x8 | x8 | x8 | x8 | x8 | x8 | x8 | %165
 x8 | x8 | x8 | x8 | x8 | x8 | x8 | x8 | x8 | F2 x6 | x8 | x8 | x8 | x8 | x8 | x8 | x8 | x8 | x8 | %184
 x8 | x8 | x8 | x8 | x8 | x8 | x8 | x8 | x8 | x8 | x8 || x8 | x8 | x8 | x8 | x8 | x8 | x8 | x8 | %203
 x8 | x8 | x8 | x8 | x8 | x8 | x8 | x8 | x8 | x8 | x8 | x8 | x8 | x8 || x8 | x8 | x8 | x8 | x8 | %222
 x8 | x8 | x8 | x8 | x8 | x8 | x8 | x8 | x8 | x8 | x8 | x8 | x8 | x8 | x8 | x8 | x8 | x8 | x8 | %241
 x8 | x8 | x8 | x8 | x8 | x8 | x8 | x8 | x8 | x8 | x8 | x8 | x8 | x8 | x8 | x8 | x8 | x8 | x8 | %260
 x8 | A4 x4 | x8 | x8 | x8 | x8 | x8 | x6 C2 | x8 | x8 | x8 | x8 | x8 | x8 | x8 | x8 | x8 | x8 | %278
 x8 | x8 | x8 | G6 x2 | x8 | x8 | x8 | x8 | x8 | x8 | x8 | x8 |][M:4/4] x8 | x8 | x8 | x8 | x8 | %295
 x8 | x8 | x8 | x8 || x8 | x8 | x8 | x8 | x8 | x8 | x8 | x8 | x8 | x8 | x8 | x8 | x8 | x8 | x8 | %314
 x8 | x8 | x8 | x8 | x8 |][K:G][M:4/4] x4 E4 | x8 | x8 | x8 | x8 | x8 | x4 E4- | x8 | x8 | x8 | %329
 x8 | x8 | x8 | x8 | x4 E4 | x8 | x8 | x8 | x8 | x8 | x8 | x8 | x8 | x8 | x8 | x8 | x8 | x8 | x8 |] %348
[K:C][M:4/4] x8 | x8 | x8 | x8 | x8 | x8 | x8 | x8 | x8 | x8 | x8 | x8 | x8 | x8 | x8 | x8 | x8 | %365
 x8 | x8 | x8 | x8 | x8 | x8 | x8 | x8 | x8 | x8 | x8 | x8 | x8 | x8 | x4 G4 | x8 | x4 A4 | x8 | %383
 x8 | x8 | x8 | x8 | x8 | x8 | x8 | x8 | x8 | x8 | x8 | x8 | x8 | x8 |] %397
V:11
 x8 | x8 | x8 | x8 | x8 | x8 | x8 | x8 | x8 | x8 | x8 | x8 | x8 | x8 | x8 | x8 | x8 | x8 | x8 | %19
 x8 | x8 | x8 | x8 | x8 | x8 | x8 | x8 | x8 | x8 | x8 | x8 | x8 | x8 | x8 | x8 | x8 | x8 | x8 | %38
 x8 | x8 | x8 |][M:4/4] x8 | x8 | x8 | x8 | x8 | x8 | x8 | x8 | x8 | x8 | x8 | x8 | x8 | x8 | x8 | %56
 x8 | x8 | x8 | x8 | x8 | x8 | A4 G2 F2 | x8 | x8 | x8 | x8 | x8 | x8 | x8 | x8 | x8 | x8 | x8 | %74
 x8 | x8 | x8 | x8 | x8 | x8 | x8 | x8 | x8 | x8 | x8 | x8 | x8 | x8 | x8 | x8 | x8 | x8 | x8 | %93
 x8 | x8 | x8 | x8 | x8 | x8 | x8 | x8 | x8 | x8 | x8 | x8 | x8 | x8 | x8 | x8 | x8 | x8 | x8 | %112
 x8 | x8 | x8 | x8 | x8 | x8 | x8 | x8 | x8 | x8 | x8 | x8 | x8 | x8 | x8 | x8 | x8 | x8 | x8 | %131
 x8 | x8 | x8 | x8 |][M:4/4] x8 | x8 | x8 | x8 | x8 | x8 | x8 | x8 | x8 | x8 | x8 | x8 | x8 | x8 | %149
 x8 | x8 | x8 | x8 | x8 | x8 | x8 | x8 | x8 | x8 | x8 | x8 | x8 | x8 | x8 | x8 | x8 | x8 | x8 | %168
 x8 | x8 | x8 | x8 | x8 | x8 | x8 | x8 | x8 | x8 | x8 | x8 | x8 | x8 | x8 | x8 | x8 | x8 | x8 | %187
 x8 | x8 | x8 | x8 | x8 | x8 | x8 | x8 || x8 | x8 | x8 | x8 | x8 | x8 | x8 | x8 | x8 | x8 | x8 | %206
 x8 | x8 | x8 | x8 | x8 | x8 | x8 | x8 | x8 | x8 | x8 || x8 | x8 | x8 | x8 | x8 | x8 | x8 | x8 | %225
 x8 | x8 | x8 | x8 | x8 | x8 | x8 | x8 | x8 | x8 | x8 | x8 | x8 | x8 | x8 | x8 | x8 | x8 | x8 | %244
 x8 | x8 | x8 | x8 | x8 | x8 | x8 | x8 | x8 | x8 | x8 | x8 | x8 | x8 | x8 | x8 | x8 | x8 | x8 | %263
 x8 | x8 | x8 | x8 | x8 | x8 | x8 | x8 | x8 | x8 | x8 | x8 | x8 | x8 | x8 | x8 | x8 | x8 | x8 | %282
 x8 | x8 | x6 E2 | x8 | x8 | x8 | x8 | x8 |][M:4/4] x8 | x8 | x8 | x8 | x8 | x8 | x8 | x8 | x8 || %299
 x8 | x4 C2 E2- | x8 | x8 | x8 | x8 | x8 | x8 | x8 | x8 | x8 | x8 | x8 | x8 | x8 | c4 B4 | x8 | %316
 x8 | x8 | x8 |][K:G][M:4/4] x8 | x8 | x8 | x8 | x8 | x8 | x8 | x8 | x8 | x8 | x8 | x8 | x8 | x8 | %333
 x8 | x8 | x8 | x8 | x8 | x8 | x8 | x8 | x8 | x8 | x8 | x8 | x8 | x8 | x8 |][K:C][M:4/4] x8 | x8 | %350
 x8 | x8 | x8 | x8 | x8 | x8 | x8 | x8 | x8 | x8 | x8 | x8 | x8 | x8 | x8 | x8 | x8 | x8 | x8 | %369
 x8 | x8 | x8 | x8 | x8 | x8 | x8 | x8 | x8 | x8 | x8 | x8 | x8 | x8 | x8 | x8 | x8 | x8 | x8 | %388
 x8 | x8 | x8 | x8 | x8 | x8 | x8 | x8 | x8 |] %397
V:12
 x8 | x8 | x8 | x8 | x8 | x8 | x8 | x8 | x8 | x8 | x8 | x8 | x8 | x8 | x8 | x8 | x8 | x8 | x8 | %19
 x8 | x8 | x8 | x8 | x8 | x8 | x8 | x8 | x8 | x8 | x8 | x8 | x8 | x8 | x8 | x8 | x8 | x8 | x8 | %38
 x8 | x8 | x8 |][M:4/4] x8 | x8 | x8 | x8 | x8 | x8 | x8 | x8 | x8 | x8 | x8 | x8 | x8 | x8 | x8 | %56
 x8 | x8 | x8 | x8 | x8 | x8 | x8 | x8 | x8 | x8 | x8 | x8 | x8 | x8 | x8 | x8 | x8 | x8 | x8 | %75
 x8 | x8 | x8 | x8 | x8 | x8 | x8 | x8 | x8 | x8 | x8 | x8 | x8 | x8 | x8 | x8 | x8 | x8 | x8 | %94
 x8 | x8 | x8 | x8 | x8 | x8 | x8 | x8 | x8 | x8 | x8 | x8 | x8 | x8 | x8 | x8 | x8 | x8 | x8 | %113
 x8 | x8 | x8 | x8 | x8 | x8 | x8 | x8 | x8 | x8 | x8 | x8 | x8 | x8 | x8 | x8 | x8 | x8 | x8 | %132
 x8 | x8 | x8 |][M:4/4] x8 | x8 | x8 | x8 | x8 | x8 | x8 | x8 | x8 | x8 | x8 | x8 | x8 | x8 | x8 | %150
 x8 | x8 | x8 | x8 | x8 | x8 | x8 | x8 | x8 | x8 | x8 | x8 | x8 | x8 | x8 | x8 | x8 | x8 | x8 | %169
 x8 | x8 | x8 | x8 | x8 | x8 | x8 | x8 | x8 | x8 | x8 | x8 | x8 | x8 | x8 | x8 | x8 | x8 | x8 | %188
 x8 | x8 | x8 | x8 | x8 | x8 | x8 || x8 | x8 | x8 | x8 | x8 | x8 | x8 | x8 | x8 | x8 | x8 | x8 | %207
 x8 | x8 | x8 | x8 | x8 | x8 | x8 | x8 | x8 | x8 || x8 | x8 | x8 | x8 | x8 | x8 | x8 | x8 | x8 | %226
 x8 | x8 | x8 | x8 | x8 | x8 | x8 | x8 | x8 | x8 | x8 | x8 | x8 | x8 | x8 | x8 | x8 | x8 | x8 | %245
 x8 | x8 | x8 | x8 | x8 | x8 | x8 | x8 | x8 | x8 | x8 | x8 | x8 | x8 | x8 | x8 | x8 | x8 | x2 G,6 | %264
 x8 | x8 | x8 | x8 | x8 | x8 | x8 | x8 | x8 | x8 | x8 | x8 | x8 | x8 | x8 | x8 | x8 | x8 | x8 | %283
 x8 | x8 | x8 | x8 | x8 | x8 | x8 |][M:4/4] x8 | x8 | x8 | x8 | x8 | x8 | x8 | x8 | x8 || x8 | x8 | %301
 x8 | x8 | x8 | x8 | x8 | x8 | x8 | x8 | x8 | x8 | x8 | x8 | x8 | x8 | x8 | x8 | x8 | x8 |] %319
[K:G][M:4/4] x8 | x8 | x8 | x8 | x8 | x8 | x8 | x8 | x8 | x8 | x8 | x8 | x8 | x8 | x8 | x8 | x8 | %336
 x8 | x8 | x8 | x8 | x8 | x8 | x8 | x8 | x8 | x8 | x8 | x8 |][K:C][M:4/4] x8 | x8 | x8 | x8 | x8 | %353
 x8 | x8 | x8 | x8 | x8 | x8 | x8 | x8 | x8 | x8 | x8 | x8 | x8 | x8 | x8 | x8 | x8 | x8 | x8 | %372
 x8 | x8 | x8 | x8 | x8 | x8 | x8 | x8 | x8 | x8 | x8 | x8 | x8 | x8 | x8 | x8 | x8 | x8 | x8 | %391
 x8 | x8 | x8 | x8 | x8 | x8 |] %397

